;FLAVOR:Marlin
;TIME:15097
;Filament used: 12.0779m
;Layer height: 0.16
;MINX:8.255
;MINY:14.541
;MINZ:0.2
;MAXX:208.289
;MAXY:214.575
;MAXZ:25.88
;Generated with Cura_SteamEngine master
M140 S50
M105
M190 S50
M104 S210
M105
M109 S210
M82 ;absolute extrusion mode
; Ender 3 Custom Start G-code
G92 E0 ; Reset Extruder
G28 ; Home all axes
G1 Z2.0 F3000 ; Move Z Axis up little to prevent scratching of Heat Bed
G1 X0.1 Y20 Z0.3 F5000.0 ; Move to start position
G1 X0.1 Y200.0 Z0.3 F1500.0 E15 ; Draw the first line
G1 X0.4 Y200.0 Z0.3 F5000.0 ; Move to side a little
G1 X0.4 Y20 Z0.3 F1500.0 E30 ; Draw the second line
G92 E0 ; Reset Extruder
G1 Z2.0 F3000 ; Move Z Axis up little to prevent scratching of Heat Bed
G1 X5 Y20 Z0.3 F5000.0 ; Move over to prevent blob squish
G92 E0
G92 E0
G1 F2700 E-5
;LAYER_COUNT:131
;LAYER:0
M107
G0 F6000 X35.365 Y15.55 Z0.2
;TYPE:SKIRT
G1 F2700 E0
G1 F1200 X36.241 Y15.77 E0.03004
G1 X37.093 Y16.067 E0.06005
G1 X37.917 Y16.439 E0.09012
G1 X38.704 Y16.882 E0.12016
G1 X39.448 Y17.393 E0.15018
G1 X40.312 Y18.121 E0.18776
G1 X40.719 Y18.511 E0.2065
G1 X109.663 Y87.452 E3.44935
G1 X111.561 Y89.297 E3.53739
G1 X113.415 Y91.001 E3.62114
G1 X115.344 Y92.675 E3.70609
G1 X117.286 Y94.265 E3.78957
G1 X119.33 Y95.845 E3.87549
G1 X121.35 Y97.318 E3.95865
G1 X123.479 Y98.779 E4.04453
G1 X125.592 Y100.144 E4.12819
G1 X127.773 Y101.466 E4.21302
G1 X129.955 Y102.705 E4.29648
G1 X132.216 Y103.906 E4.38163
G1 X134.487 Y105.032 E4.46594
G1 X136.81 Y106.103 E4.55102
G1 X139.124 Y107.09 E4.63469
G1 X141.507 Y108.029 E4.71988
G1 X143.474 Y108.74 E4.78945
G1 X143.862 Y108.886 E4.80323
G1 X144.693 Y109.242 E4.8333
G1 X145.488 Y109.669 E4.86332
G1 X146.243 Y110.165 E4.89336
G1 X147.142 Y110.896 E4.9319
G1 X147.346 Y111.082 E4.94108
G1 X147.686 Y111.406 E4.9567
G1 X203.976 Y167.695 E7.60439
G1 X204.073 Y167.793 E7.60897
G1 X204.588 Y168.322 E7.63353
G1 X205.188 Y168.996 E7.66354
G1 X205.727 Y169.721 E7.69359
G1 X206.199 Y170.491 E7.72363
G1 X206.602 Y171.299 E7.75366
G1 X206.931 Y172.14 E7.7837
G1 X207.185 Y173.007 E7.81375
G1 X207.361 Y173.892 E7.84376
G1 X207.458 Y174.79 E7.8738
G1 X207.477 Y175.254 E7.88924
G1 X207.489 Y175.995 E7.91389
G1 X207.488 Y195.978 E8.57853
G1 X207.478 Y196.676 E8.60175
G1 X207.425 Y197.578 E8.6318
G1 X207.293 Y198.471 E8.66182
G1 X207.082 Y199.349 E8.69186
G1 X206.794 Y200.205 E8.7219
G1 X206.432 Y201.032 E8.75192
G1 X205.997 Y201.824 E8.78198
G1 X205.495 Y202.575 E8.81202
G1 X204.671 Y203.559 E8.85471
G1 X204.123 Y204.129 E8.88101
G1 X197.861 Y210.391 E9.17555
G1 X197.366 Y210.873 E9.19853
G1 X196.692 Y211.474 E9.22857
G1 X195.967 Y212.012 E9.2586
G1 X195.197 Y212.485 E9.28865
G1 X194.389 Y212.888 E9.31868
G1 X193.548 Y213.217 E9.34872
G1 X192.681 Y213.471 E9.37877
G1 X191.796 Y213.647 E9.40878
G1 X190.898 Y213.744 E9.43882
G1 X190.435 Y213.763 E9.45423
G1 X189.698 Y213.775 E9.47875
G1 X169.708 Y213.774 E10.14362
G1 X169.01 Y213.764 E10.16684
G1 X168.108 Y213.711 E10.19689
G1 X167.215 Y213.579 E10.22691
G1 X166.337 Y213.368 E10.25695
G1 X165.481 Y213.08 E10.28699
G1 X164.654 Y212.718 E10.31701
G1 X163.862 Y212.283 E10.34707
G1 X163.111 Y211.781 E10.37711
G1 X162.316 Y211.132 E10.41125
G1 X162.16 Y210.991 E10.41824
G1 X161.863 Y210.711 E10.43182
G1 X161.668 Y210.52 E10.44089
G1 X105.412 Y154.264 E13.087
G1 X105.314 Y154.165 E13.09164
G1 X104.844 Y153.682 E13.11405
G1 X104.243 Y153.008 E13.14409
G1 X103.705 Y152.283 E13.17411
G1 X103.232 Y151.513 E13.20417
G1 X102.83 Y150.705 E13.23419
G1 X102.564 Y150.045 E13.25786
G1 X102.174 Y148.969 E13.29592
G1 X101.281 Y146.607 E13.37991
G1 X100.3 Y144.216 E13.46587
G1 X99.288 Y141.936 E13.54883
G1 X98.181 Y139.62 E13.63421
G1 X97.012 Y137.345 E13.71928
G1 X95.806 Y135.149 E13.80261
G1 X94.513 Y132.946 E13.88757
G1 X93.172 Y130.805 E13.9716
G1 X91.766 Y128.693 E14.05599
G1 X90.285 Y126.6 E14.14126
G1 X88.763 Y124.573 E14.22557
G1 X87.183 Y122.588 E14.30995
G1 X85.548 Y120.65 E14.39429
G1 X83.883 Y118.785 E14.47744
G1 X81.117 Y115.898 E14.61042
G1 X12.412 Y47.193 E17.84209
G1 X11.944 Y46.712 E17.86441
G1 X11.344 Y46.037 E17.89445
G1 X10.805 Y45.312 E17.9245
G1 X10.333 Y44.543 E17.95451
G1 X9.931 Y43.734 E17.98456
G1 X9.602 Y42.893 E18.01459
G1 X9.348 Y42.026 E18.04464
G1 X9.172 Y41.141 E18.07465
G1 X9.075 Y40.243 E18.10469
G1 X9.058 Y39.34 E18.13473
G1 X9.121 Y38.439 E18.16477
G1 X9.264 Y37.547 E18.19482
G1 X9.484 Y36.671 E18.22486
G1 X9.781 Y35.819 E18.25487
G1 X10.153 Y34.995 E18.28494
G1 X10.596 Y34.208 E18.31498
G1 X11.107 Y33.464 E18.345
G1 X11.829 Y32.606 E18.3823
G1 X12.039 Y32.383 E18.39248
G1 X12.253 Y32.164 E18.40267
G1 X25.719 Y18.698 E19.03607
G1 X26.2 Y18.23 E19.05839
G1 X26.875 Y17.63 E19.08843
G1 X27.6 Y17.091 E19.11847
G1 X28.369 Y16.619 E19.14848
G1 X29.178 Y16.217 E19.17853
G1 X30.019 Y15.888 E19.20857
G1 X30.886 Y15.634 E19.23862
G1 X31.771 Y15.458 E19.26863
G1 X32.669 Y15.361 E19.29867
G1 X33.572 Y15.344 E19.32871
G1 X34.473 Y15.407 E19.35875
G1 X35.365 Y15.55 E19.3888
G0 F6000 X35.252 Y15.12
G1 F1200 X36.149 Y15.328 E19.41942
G1 X37.025 Y15.612 E19.45005
G1 X37.872 Y15.972 E19.48066
G1 X38.686 Y16.403 E19.5113
G1 X39.458 Y16.904 E19.54191
G1 X40.184 Y17.47 E19.57252
G1 X40.587 Y17.83 E19.5905
G1 X40.781 Y18.013 E19.59937
G1 X41.002 Y18.229 E19.60964
G1 X109.906 Y87.13 E22.85061
G1 X111.846 Y89.017 E22.94062
G1 X113.682 Y90.704 E23.02355
G1 X115.593 Y92.361 E23.10768
G1 X117.56 Y93.972 E23.19224
G1 X119.548 Y95.509 E23.27582
G1 X121.583 Y96.993 E23.35959
G1 X123.701 Y98.446 E23.44502
G1 X125.786 Y99.792 E23.52756
G1 X127.983 Y101.124 E23.61301
G1 X130.176 Y102.37 E23.6969
G1 X132.402 Y103.553 E23.78075
G1 X134.639 Y104.662 E23.86379
G1 X136.969 Y105.736 E23.94912
G1 X139.28 Y106.721 E24.03268
G1 X141.653 Y107.657 E24.11752
G1 X143.615 Y108.366 E24.18691
G1 X144.003 Y108.512 E24.2007
G1 X144.85 Y108.873 E24.23132
G1 X145.662 Y109.307 E24.26194
G1 X146.434 Y109.809 E24.29257
G1 X147.412 Y110.6 E24.33441
G1 X147.616 Y110.786 E24.34359
G1 X147.969 Y111.124 E24.35984
G1 X204.259 Y167.413 E27.00753
G1 X204.359 Y167.514 E27.01226
G1 X204.874 Y168.043 E27.03681
G1 X205.487 Y168.73 E27.06744
G1 X206.038 Y169.467 E27.09804
G1 X206.523 Y170.25 E27.12868
G1 X206.938 Y171.072 E27.1593
G1 X207.281 Y171.926 E27.18991
G1 X207.548 Y172.807 E27.22053
G1 X207.737 Y173.708 E27.25115
G1 X207.848 Y174.622 E27.28177
G1 X207.877 Y175.247 E27.30258
G1 X207.889 Y175.995 E27.32747
G1 X207.888 Y195.984 E27.9923
G1 X207.878 Y196.682 E28.01552
G1 X207.825 Y197.601 E28.04614
G1 X207.692 Y198.512 E28.07676
G1 X207.481 Y199.408 E28.10737
G1 X207.193 Y200.282 E28.13798
G1 X206.83 Y201.129 E28.16863
G1 X206.395 Y201.94 E28.19924
G1 X205.891 Y202.71 E28.22985
G1 X205.322 Y203.434 E28.26048
G1 X204.961 Y203.834 E28.2784
G1 X204.406 Y204.412 E28.30505
G1 X198.14 Y210.677 E28.59976
G1 X197.645 Y211.159 E28.62274
G1 X196.958 Y211.772 E28.65336
G1 X196.221 Y212.324 E28.68399
G1 X195.438 Y212.809 E28.71462
G1 X194.616 Y213.224 E28.74525
G1 X193.762 Y213.566 E28.77585
G1 X192.881 Y213.833 E28.80646
G1 X191.98 Y214.023 E28.83709
G1 X191.066 Y214.134 E28.86771
G1 X190.442 Y214.163 E28.88849
G1 X189.698 Y214.175 E28.91324
G1 X169.702 Y214.174 E29.57831
G1 X169.004 Y214.164 E29.60153
G1 X168.085 Y214.111 E29.63214
G1 X167.174 Y213.978 E29.66276
G1 X166.278 Y213.767 E29.69338
G1 X165.404 Y213.479 E29.72399
G1 X164.557 Y213.116 E29.75464
G1 X163.746 Y212.681 E29.78525
G1 X162.976 Y212.177 E29.81585
G1 X162.048 Y211.429 E29.8555
G1 X161.892 Y211.288 E29.86249
G1 X161.583 Y210.997 E29.87661
G1 X161.388 Y210.806 E29.88569
G1 X105.129 Y154.547 E32.53194
G1 X105.027 Y154.444 E32.53676
G1 X104.557 Y153.961 E32.55918
G1 X103.944 Y153.274 E32.5898
G1 X103.393 Y152.537 E32.62041
G1 X102.909 Y151.754 E32.65102
G1 X102.494 Y150.932 E32.68165
G1 X102.188 Y150.181 E32.70862
G1 X101.822 Y149.171 E32.74435
G1 X100.901 Y146.733 E32.83103
G1 X99.935 Y144.382 E32.91557
G1 X98.912 Y142.076 E32.99948
G1 X97.823 Y139.797 E33.08349
G1 X96.679 Y137.57 E33.16676
G1 X95.453 Y135.338 E33.25146
G1 X94.172 Y133.156 E33.33561
G1 X92.833 Y131.018 E33.41952
G1 X91.423 Y128.9 E33.50414
G1 X89.971 Y126.849 E33.58773
G1 X88.459 Y124.834 E33.67151
G1 X86.866 Y122.833 E33.75658
G1 X85.244 Y120.91 E33.84026
G1 X83.591 Y119.059 E33.9228
G1 X80.828 Y116.175 E34.05564
G1 X12.228 Y47.575 E37.28237
G1 X12.126 Y47.472 E37.28719
G1 X11.658 Y46.991 E37.30951
G1 X11.045 Y46.304 E37.34013
G1 X10.494 Y45.566 E37.37077
G1 X10.009 Y44.783 E37.4014
G1 X9.594 Y43.962 E37.432
G1 X9.252 Y43.107 E37.46263
G1 X8.986 Y42.226 E37.49323
G1 X8.796 Y41.325 E37.52386
G1 X8.686 Y40.411 E37.55448
G1 X8.656 Y39.491 E37.5851
G1 X8.705 Y38.571 E37.61574
G1 X8.834 Y37.66 E37.64634
G1 X9.042 Y36.763 E37.67697
G1 X9.326 Y35.887 E37.7076
G1 X9.686 Y35.04 E37.73821
G1 X10.117 Y34.226 E37.76884
G1 X10.618 Y33.454 E37.79945
G1 X11.184 Y32.728 E37.83007
G1 X11.538 Y32.332 E37.84774
G1 X11.748 Y32.109 E37.85792
G1 X11.97 Y31.881 E37.86851
G1 X25.44 Y18.412 E38.50207
G1 X25.921 Y17.944 E38.52439
G1 X26.608 Y17.331 E38.55502
G1 X27.346 Y16.78 E38.58565
G1 X28.129 Y16.295 E38.61628
G1 X28.95 Y15.88 E38.64688
G1 X29.805 Y15.538 E38.67751
G1 X30.686 Y15.272 E38.70812
G1 X31.587 Y15.082 E38.73874
G1 X32.501 Y14.972 E38.76936
G1 X33.421 Y14.942 E38.79998
G1 X34.341 Y14.991 E38.83062
G1 X35.252 Y15.12 E38.86122
G0 F6000 X35.136 Y14.693
G1 F1200 X36.053 Y14.888 E38.8924
G1 X36.951 Y15.16 E38.92361
G1 X37.822 Y15.507 E38.9548
G1 X38.66 Y15.928 E38.98599
G1 X39.459 Y16.418 E39.01716
G1 X40.214 Y16.975 E39.04837
G1 X40.861 Y17.539 E39.07691
G1 X41.055 Y17.722 E39.08578
G1 X41.285 Y17.946 E39.09646
G1 X110.221 Y86.879 E42.33893
G1 X112.112 Y88.717 E42.42664
G1 X113.934 Y90.392 E42.50896
G1 X115.88 Y92.081 E42.59466
G1 X117.773 Y93.631 E42.67603
G1 X119.805 Y95.202 E42.76146
G1 X121.839 Y96.684 E42.84517
G1 X123.897 Y98.097 E42.9282
G1 X126.004 Y99.457 E43.01161
G1 X128.181 Y100.777 E43.09628
G1 X130.34 Y102.003 E43.17886
G1 X132.588 Y103.198 E43.26354
G1 X134.848 Y104.318 E43.34743
G1 X137.115 Y105.363 E43.43046
G1 X139.435 Y106.352 E43.51434
G1 X141.769 Y107.273 E43.59779
G1 X143.756 Y107.992 E43.66807
G1 X144.144 Y108.138 E43.68186
G1 X145.007 Y108.505 E43.71305
G1 X145.835 Y108.945 E43.74424
G1 X146.623 Y109.453 E43.77542
G1 X147.681 Y110.304 E43.82058
G1 X147.885 Y110.49 E43.82977
G1 X148.252 Y110.841 E43.84666
G1 X204.542 Y167.13 E46.49434
G1 X204.646 Y167.235 E46.49926
G1 X205.161 Y167.764 E46.52381
G1 X205.786 Y168.463 E46.555
G1 X206.349 Y169.213 E46.58619
G1 X206.846 Y170.008 E46.61737
G1 X207.274 Y170.843 E46.64858
G1 X207.629 Y171.711 E46.67977
G1 X207.909 Y172.606 E46.71096
G1 X208.111 Y173.522 E46.74216
G1 X208.235 Y174.452 E46.77337
G1 X208.277 Y175.24 E46.79961
G1 X208.289 Y175.995 E46.82473
G1 X208.288 Y195.99 E47.48977
G1 X208.278 Y196.688 E47.51298
G1 X208.224 Y197.624 E47.54417
G1 X208.092 Y198.552 E47.57534
G1 X207.88 Y199.466 E47.60655
G1 X207.591 Y200.358 E47.63774
G1 X207.228 Y201.223 E47.66894
G1 X206.792 Y202.053 E47.70012
G1 X206.287 Y202.844 E47.73133
G1 X205.716 Y203.588 E47.76253
G1 X205.25 Y204.11 E47.7858
G1 X204.689 Y204.695 E47.81276
G1 X198.419 Y210.964 E48.10766
G1 X197.924 Y211.446 E48.13064
G1 X197.225 Y212.071 E48.16182
G1 X196.475 Y212.634 E48.19301
G1 X195.68 Y213.132 E48.22422
G1 X194.845 Y213.559 E48.25541
G1 X193.977 Y213.914 E48.2866
G1 X193.082 Y214.194 E48.31779
G1 X192.166 Y214.397 E48.34899
G1 X191.236 Y214.521 E48.3802
G1 X190.449 Y214.563 E48.40641
G1 X189.698 Y214.575 E48.4314
G1 X169.696 Y214.574 E49.09666
G1 X168.998 Y214.564 E49.11988
G1 X168.062 Y214.51 E49.15107
G1 X167.134 Y214.378 E49.18224
G1 X166.22 Y214.166 E49.21345
G1 X165.328 Y213.877 E49.24463
G1 X164.463 Y213.514 E49.27584
G1 X163.633 Y213.078 E49.30702
G1 X162.842 Y212.573 E49.33823
G1 X161.78 Y211.726 E49.38341
G1 X161.624 Y211.585 E49.39041
G1 X161.303 Y211.282 E49.40509
G1 X161.027 Y211.011 E49.41795
G1 X104.846 Y154.83 E52.06053
G1 X104.74 Y154.723 E52.06554
G1 X104.27 Y154.24 E52.08796
G1 X103.646 Y153.541 E52.11912
G1 X103.083 Y152.791 E52.15032
G1 X102.586 Y151.995 E52.18153
G1 X102.158 Y151.161 E52.21271
G1 X101.812 Y150.317 E52.24304
G1 X101.452 Y149.324 E52.27818
G1 X100.528 Y146.879 E52.36511
G1 X99.571 Y144.547 E52.44895
G1 X98.543 Y142.232 E52.5332
G1 X97.47 Y139.987 E52.61596
G1 X96.322 Y137.751 E52.69956
G1 X95.101 Y135.527 E52.78394
G1 X93.831 Y133.365 E52.86734
G1 X92.494 Y131.23 E52.95112
G1 X91.107 Y129.147 E53.03436
G1 X89.64 Y127.074 E53.11882
G1 X88.125 Y125.056 E53.20275
G1 X86.564 Y123.095 E53.28612
G1 X84.942 Y121.171 E53.36982
G1 X83.301 Y119.334 E53.45174
G1 X80.562 Y116.475 E53.58343
G1 X11.945 Y47.858 E56.81096
G1 X11.839 Y47.751 E56.81597
G1 X11.371 Y47.27 E56.83829
G1 X10.746 Y46.57 E56.8695
G1 X10.183 Y45.82 E56.9007
G1 X9.686 Y45.025 E56.93188
G1 X9.259 Y44.19 E56.96307
G1 X8.904 Y43.322 E56.99426
G1 X8.625 Y42.427 E57.02544
G1 X8.422 Y41.511 E57.05665
G1 X8.299 Y40.581 E57.08785
G1 X8.255 Y39.644 E57.11905
G1 X8.291 Y38.707 E57.15024
G1 X8.407 Y37.776 E57.18144
G1 X8.602 Y36.859 E57.21262
G1 X8.874 Y35.961 E57.24383
G1 X9.221 Y35.09 E57.27502
G1 X9.642 Y34.252 E57.30621
G1 X10.132 Y33.453 E57.33738
G1 X10.689 Y32.698 E57.36859
G1 X11.247 Y32.058 E57.39683
G1 X11.687 Y31.598 E57.418
G1 X25.161 Y18.125 E58.05175
G1 X25.642 Y17.657 E58.07407
G1 X26.342 Y17.032 E58.10529
G1 X27.092 Y16.469 E58.13648
G1 X27.887 Y15.972 E58.16766
G1 X28.722 Y15.545 E58.19885
G1 X29.59 Y15.19 E58.23004
G1 X30.485 Y14.911 E58.26122
G1 X31.401 Y14.708 E58.29243
G1 X32.331 Y14.585 E58.32363
G1 X33.268 Y14.541 E58.35483
G1 X34.205 Y14.577 E58.38602
G1 X35.136 Y14.693 E58.41722
G1 F2700 E53.41722
;MESH:parf-full-cheet-extension.stl
G0 F6000 X172.692 Y191.847
G0 X170.882 Y192.26
G0 X172.919 Y196.497
;TYPE:WALL-INNER
G1 F2700 E58.41722
G1 F1200 X173.379 Y197.13 E58.44325
G1 X173.881 Y197.737 E58.46945
G1 X174.416 Y198.307 E58.49545
G1 X174.981 Y198.837 E58.52121
G1 X175.583 Y199.337 E58.54724
G1 X176.224 Y199.801 E58.57356
G1 X176.941 Y200.254 E58.60177
G1 X177.629 Y200.626 E58.62778
G1 X178.275 Y200.93 E58.65153
G1 X179.003 Y201.217 E58.67756
G1 X179.809 Y201.477 E58.70572
G1 X180.503 Y201.654 E58.72955
G1 X181.266 Y201.799 E58.75538
G1 X182.05 Y201.899 E58.78166
G1 X182.9 Y201.948 E58.80998
G1 X183.609 Y201.947 E58.83356
G1 X184.39 Y201.897 E58.85959
G1 X185.16 Y201.8 E58.88541
G1 X185.932 Y201.653 E58.91154
G1 X186.691 Y201.459 E58.9376
G1 X187.431 Y201.219 E58.96348
G1 X188.156 Y200.931 E58.98942
G1 X188.869 Y200.598 E59.0156
G1 X189.557 Y200.219 E59.04172
G1 X190.212 Y199.803 E59.06753
G1 X190.844 Y199.343 E59.09353
G1 X191.452 Y198.842 E59.11973
G1 X192.019 Y198.309 E59.14561
G1 X192.215 Y198.103 E59.15507
G1 X192.55 Y197.742 E59.17145
G1 X192.734 Y197.525 E59.18091
G1 X193.053 Y197.137 E59.19762
G1 X193.515 Y196.499 E59.22382
G1 X193.968 Y195.781 E59.25206
G1 X194.341 Y195.094 E59.27806
G1 X194.638 Y194.456 E59.30146
G1 X194.644 Y194.445 E59.30188
G1 X194.932 Y193.72 E59.32783
G1 X195.192 Y192.911 E59.35609
G1 X195.368 Y192.218 E59.37987
G1 X195.513 Y191.456 E59.40567
G1 X195.611 Y190.675 E59.43185
G1 X195.611 Y190.663 E59.43225
G1 X195.661 Y189.9 E59.45768
G1 X195.662 Y189.112 E59.48389
G1 X195.611 Y188.333 E59.50985
G1 X195.515 Y187.562 E59.5357
G1 X195.368 Y186.789 E59.56187
G1 X195.173 Y186.029 E59.58796
G1 X194.932 Y185.291 E59.61378
G1 X194.645 Y184.566 E59.63972
G1 X194.312 Y183.853 E59.66589
G1 X193.934 Y183.166 E59.69197
G1 X193.519 Y182.513 E59.71771
G1 X193.057 Y181.877 E59.74385
G1 X192.556 Y181.27 E59.77003
G1 X192.023 Y180.704 E59.79589
G1 X191.82 Y180.51 E59.80523
G1 X191.458 Y180.172 E59.8217
G1 X191.236 Y179.985 E59.83135
G1 X190.849 Y179.669 E59.84797
G1 X190.214 Y179.207 E59.87409
G1 X189.495 Y178.754 E59.90235
G1 X188.806 Y178.38 E59.92843
G1 X188.162 Y178.078 E59.95209
G1 X187.433 Y177.79 E59.97816
G1 X186.627 Y177.531 E60.00631
G1 X185.933 Y177.354 E60.03014
G1 X185.17 Y177.209 E60.05597
G1 X184.386 Y177.109 E60.08225
G1 X183.536 Y177.06 E60.11057
G1 X182.827 Y177.061 E60.13415
G1 X182.049 Y177.111 E60.16008
G1 X181.277 Y177.207 E60.18596
G1 X180.504 Y177.354 E60.21213
