;FLAVOR:Marlin
;TIME:4036
;Filament used: 2.62395m
;Layer height: 0.2
;MINX:95.567
;MINY:95.565
;MINZ:0.2
;MAXX:139.433
;MAXY:139.435
;MAXZ:48.4
;Generated with Cura_SteamEngine master
M140 S50
M105
M190 S50
M104 S210
M105
M109 S210
M82 ;absolute extrusion mode
; Ender 3 Custom Start G-code
G92 E0 ; Reset Extruder
G28 ; Home all axes
G1 Z2.0 F3000 ; Move Z Axis up little to prevent scratching of Heat Bed
G1 X0.1 Y20 Z0.3 F5000.0 ; Move to start position
G1 X0.1 Y200.0 Z0.3 F1500.0 E15 ; Draw the first line
G1 X0.4 Y200.0 Z0.3 F5000.0 ; Move to side a little
G1 X0.4 Y20 Z0.3 F1500.0 E30 ; Draw the second line
G92 E0 ; Reset Extruder
G1 Z2.0 F3000 ; Move Z Axis up little to prevent scratching of Heat Bed
G1 X5 Y20 Z0.3 F5000.0 ; Move over to prevent blob squish
G92 E0
G92 E0
G1 F2700 E-5
;LAYER_COUNT:242
;LAYER:0
M107
G0 F6000 X118.746 Y96.4 Z0.2
;TYPE:SKIRT
G1 F2700 E0
G1 F1200 X119.374 Y96.446 E0.02094
G1 X120.039 Y96.517 E0.04319
G1 X120.777 Y96.62 E0.06797
G1 X121.399 Y96.726 E0.08896
G1 X122.004 Y96.849 E0.10949
G1 X122.604 Y96.99 E0.12999
G1 X123.323 Y97.182 E0.15474
G1 X123.973 Y97.379 E0.17733
G1 X124.588 Y97.588 E0.19894
G1 X125.152 Y97.799 E0.21897
G1 X125.83 Y98.075 E0.24331
G1 X126.453 Y98.353 E0.266
G1 X127.05 Y98.644 E0.28809
G1 X127.618 Y98.944 E0.30946
G1 X128.236 Y99.295 E0.3331
G1 X128.748 Y99.606 E0.35302
G1 X129.26 Y99.938 E0.37332
G1 X129.793 Y100.308 E0.3949
G1 X130.384 Y100.747 E0.41938
G1 X130.882 Y101.141 E0.4405
G1 X131.421 Y101.596 E0.46396
G1 X131.915 Y102.042 E0.4861
G1 X132.37 Y102.48 E0.50711
G1 X132.766 Y102.882 E0.52588
G1 X133.164 Y103.31 E0.54531
G1 X133.574 Y103.779 E0.56603
G1 X134.077 Y104.391 E0.59238
G1 X134.5 Y104.944 E0.61554
G1 X134.901 Y105.506 E0.6385
G1 X135.244 Y106.018 E0.659
G1 X135.587 Y106.566 E0.6805
G1 X135.92 Y107.14 E0.70257
G1 X136.267 Y107.784 E0.7269
G1 X136.543 Y108.334 E0.74737
G1 X136.808 Y108.906 E0.76834
G1 X137.058 Y109.494 E0.78959
G1 X137.325 Y110.18 E0.81407
G1 X137.546 Y110.807 E0.83618
G1 X137.746 Y111.44 E0.85826
G1 X137.915 Y112.039 E0.87896
G1 X138.08 Y112.699 E0.90159
G1 X138.21 Y113.291 E0.92175
G1 X138.335 Y113.957 E0.94429
G1 X138.438 Y114.633 E0.96703
G1 X138.526 Y115.372 E0.99178
G1 X138.583 Y116.019 E1.01339
G1 X138.618 Y116.657 E1.03464
G1 X138.633 Y117.275 E1.0552
G1 X138.629 Y117.964 E1.07812
G1 X138.605 Y118.6 E1.09929
G1 X138.556 Y119.317 E1.12319
G1 X138.488 Y119.988 E1.14562
G1 X138.396 Y120.669 E1.16848
G1 X138.293 Y121.288 E1.18935
G1 X138.165 Y121.933 E1.21122
G1 X138.025 Y122.539 E1.23191
G1 X137.849 Y123.209 E1.25495
G1 X137.666 Y123.826 E1.27635
G1 X137.445 Y124.493 E1.29972
G1 X137.208 Y125.137 E1.32254
G1 X136.938 Y125.799 E1.34632
G1 X136.688 Y126.361 E1.36678
G1 X136.423 Y126.913 E1.38715
G1 X136.134 Y127.471 E1.40805
G1 X135.77 Y128.123 E1.43288
G1 X135.455 Y128.649 E1.45328
G1 X135.119 Y129.174 E1.47401
G1 X134.731 Y129.739 E1.4968
G1 X134.289 Y130.337 E1.52154
G1 X133.899 Y130.831 E1.54247
G1 X133.476 Y131.335 E1.56436
G1 X133.015 Y131.848 E1.5873
G1 X132.44 Y132.446 E1.61489
G1 X131.969 Y132.905 E1.63676
G1 X131.493 Y133.34 E1.65821
G1 X130.997 Y133.765 E1.67993
G1 X130.48 Y134.18 E1.70198
G1 X129.986 Y134.553 E1.72257
G1 X129.415 Y134.957 E1.74584
G1 X128.902 Y135.297 E1.76631
G1 X128.375 Y135.624 E1.78693
G1 X127.816 Y135.947 E1.80841
G1 X127.163 Y136.297 E1.83305
G1 X126.59 Y136.581 E1.85432
G1 X125.985 Y136.858 E1.87645
G1 X125.382 Y137.111 E1.8982
G1 X124.736 Y137.358 E1.9212
G1 X124.148 Y137.563 E1.94192
G1 X123.495 Y137.768 E1.96468
G1 X122.858 Y137.945 E1.98667
G1 X122.19 Y138.108 E2.00954
G1 X121.584 Y138.237 E2.03015
G1 X120.908 Y138.359 E2.05299
G1 X120.254 Y138.455 E2.07498
G1 X119.545 Y138.536 E2.09871
G1 X118.921 Y138.588 E2.11954
G1 X118.273 Y138.622 E2.14112
G1 X117.615 Y138.635 E2.16301
G1 X116.875 Y138.626 E2.18762
G1 X116.254 Y138.6 E2.2083
G1 X115.626 Y138.554 E2.22924
G1 X114.961 Y138.483 E2.25148
G1 X114.223 Y138.38 E2.27627
G1 X113.601 Y138.274 E2.29725
G1 X112.996 Y138.151 E2.31779
G1 X112.396 Y138.01 E2.33829
G1 X111.677 Y137.818 E2.36304
G1 X111.027 Y137.621 E2.38563
G1 X110.412 Y137.412 E2.40723
G1 X109.848 Y137.201 E2.42726
G1 X109.17 Y136.925 E2.45161
G1 X108.547 Y136.647 E2.4743
G1 X107.95 Y136.356 E2.49639
G1 X107.382 Y136.056 E2.51775
G1 X106.764 Y135.705 E2.54139
G1 X106.252 Y135.394 E2.56132
G1 X105.74 Y135.062 E2.58161
G1 X105.207 Y134.692 E2.60319
G1 X104.616 Y134.253 E2.62768
G1 X104.118 Y133.859 E2.6488
G1 X103.579 Y133.404 E2.67226
G1 X103.085 Y132.958 E2.6944
G1 X102.63 Y132.52 E2.7154
G1 X102.231 Y132.115 E2.73431
G1 X101.825 Y131.678 E2.75415
G1 X101.414 Y131.207 E2.77494
G1 X100.919 Y130.604 E2.80089
G1 X100.498 Y130.054 E2.82393
G1 X100.093 Y129.486 E2.84713
G1 X99.75 Y128.973 E2.86766
G1 X99.411 Y128.431 E2.88892
G1 X99.08 Y127.86 E2.91087
G1 X98.733 Y127.216 E2.9352
G1 X98.457 Y126.666 E2.95567
G1 X98.192 Y126.094 E2.97664
G1 X97.942 Y125.506 E2.99789
G1 X97.675 Y124.82 E3.02237
G1 X97.454 Y124.193 E3.04448
G1 X97.254 Y123.56 E3.06656
G1 X97.085 Y122.964 E3.08717
G1 X96.916 Y122.289 E3.11031
G1 X96.78 Y121.663 E3.13162
G1 X96.658 Y121.002 E3.15397
G1 X96.56 Y120.352 E3.17584
G1 X96.472 Y119.61 E3.20069
G1 X96.416 Y118.963 E3.22229
G1 X96.382 Y118.338 E3.24311
G1 X96.367 Y117.725 E3.2635
G1 X96.371 Y117.036 E3.28642
G1 X96.395 Y116.4 E3.30759
G1 X96.444 Y115.683 E3.33149
G1 X96.513 Y115 E3.35432
G1 X96.608 Y114.303 E3.37772
G1 X96.711 Y113.693 E3.39829
G1 X96.836 Y113.064 E3.41962
G1 X96.974 Y112.465 E3.44007
G1 X97.151 Y111.79 E3.46328
G1 X97.339 Y111.156 E3.48527
G1 X97.56 Y110.492 E3.50855
G1 X97.795 Y109.856 E3.5311
G1 X98.067 Y109.19 E3.55503
G1 X98.314 Y108.635 E3.57523
G1 X98.587 Y108.066 E3.59622
G1 X98.89 Y107.483 E3.61808
G1 X99.25 Y106.842 E3.64253
G1 X99.557 Y106.331 E3.66236
G1 X99.886 Y105.818 E3.68263
G1 X100.27 Y105.26 E3.70515
G1 X100.718 Y104.654 E3.73022
G1 X101.113 Y104.154 E3.75141
G1 X101.53 Y103.658 E3.77297
G1 X101.985 Y103.152 E3.7956
G1 X102.56 Y102.554 E3.82319
G1 X103.031 Y102.095 E3.84507
G1 X103.507 Y101.66 E3.86651
G1 X104.003 Y101.235 E3.88824
G1 X104.52 Y100.82 E3.91029
G1 X105.014 Y100.447 E3.93088
G1 X105.585 Y100.043 E3.95414
G1 X106.098 Y99.703 E3.97461
G1 X106.625 Y99.376 E3.99524
G1 X107.184 Y99.053 E4.01671
G1 X107.837 Y98.703 E4.04135
G1 X108.412 Y98.418 E4.0627
G1 X109.024 Y98.138 E4.08508
G1 X109.629 Y97.884 E4.10691
G1 X110.268 Y97.64 E4.12966
G1 X110.852 Y97.437 E4.15022
G1 X111.505 Y97.232 E4.17298
G1 X112.142 Y97.055 E4.19497
G1 X112.81 Y96.892 E4.21784
G1 X113.416 Y96.763 E4.23845
G1 X114.092 Y96.641 E4.2613
G1 X114.746 Y96.545 E4.28328
G1 X115.455 Y96.464 E4.30702
G1 X116.079 Y96.412 E4.32784
G1 X116.727 Y96.378 E4.34943
G1 X117.385 Y96.365 E4.37132
G1 X118.125 Y96.374 E4.39593
G1 X118.746 Y96.4 E4.4166
G0 F6000 X118.775 Y96.001
G1 F1200 X119.403 Y96.047 E4.43755
G1 X120.094 Y96.121 E4.46066
G1 X120.832 Y96.224 E4.48544
G1 X121.479 Y96.335 E4.50728
G1 X122.084 Y96.458 E4.52781
G1 X122.707 Y96.604 E4.54909
G1 X123.426 Y96.796 E4.57385
G1 X124.102 Y97.001 E4.59734
G1 X124.717 Y97.21 E4.61894
G1 X125.303 Y97.428 E4.63974
G1 X125.981 Y97.704 E4.66409
G1 X126.628 Y97.994 E4.68767
G1 X127.225 Y98.285 E4.70976
G1 X127.816 Y98.596 E4.73197
G1 X128.434 Y98.947 E4.75561
G1 X128.966 Y99.27 E4.77631
G1 X129.478 Y99.602 E4.79661
G1 X130.032 Y99.987 E4.81904
G1 X130.623 Y100.426 E4.84353
G1 X131.14 Y100.835 E4.86546
G1 X131.679 Y101.29 E4.88892
G1 X132.192 Y101.753 E4.9119
G1 X132.647 Y102.191 E4.93291
G1 X133.058 Y102.61 E4.95243
G1 X133.456 Y103.038 E4.97187
G1 X133.883 Y103.525 E4.99341
G1 X134.386 Y104.137 E5.01976
G1 X134.826 Y104.711 E5.04381
G1 X135.227 Y105.273 E5.06678
G1 X135.583 Y105.806 E5.08809
G1 X135.926 Y106.354 E5.1096
G1 X136.273 Y106.95 E5.13253
G1 X136.62 Y107.594 E5.15687
G1 X136.906 Y108.166 E5.17814
G1 X137.171 Y108.738 E5.1991
G1 X137.431 Y109.349 E5.22119
G1 X137.698 Y110.035 E5.24567
G1 X137.927 Y110.686 E5.26863
G1 X138.127 Y111.319 E5.2907
G1 X138.304 Y111.942 E5.31225
G1 X138.469 Y112.602 E5.33487
G1 X138.603 Y113.218 E5.35584
G1 X138.728 Y113.884 E5.37838
G1 X138.836 Y114.586 E5.402
G1 X138.924 Y115.325 E5.42675
G1 X138.982 Y115.997 E5.44919
G1 X139.017 Y116.635 E5.47044
G1 X139.033 Y117.278 E5.49183
G1 X139.029 Y117.967 E5.51475
G1 X139.004 Y118.628 E5.53675
G1 X138.955 Y119.345 E5.56065
G1 X138.885 Y120.041 E5.58392
G1 X138.793 Y120.722 E5.60678
G1 X138.685 Y121.366 E5.62849
G1 X138.557 Y122.011 E5.65037
G1 X138.412 Y122.641 E5.67187
G1 X138.236 Y123.311 E5.69491
G1 X138.046 Y123.952 E5.71714
G1 X137.825 Y124.619 E5.74051
G1 X137.578 Y125.288 E5.76423
G1 X137.308 Y125.95 E5.78801
G1 X137.049 Y126.535 E5.80929
G1 X136.784 Y127.087 E5.82966
G1 X136.483 Y127.666 E5.85136
G1 X136.119 Y128.318 E5.8762
G1 X135.792 Y128.865 E5.89739
G1 X135.456 Y129.39 E5.91813
G1 X135.052 Y129.977 E5.94183
G1 X134.61 Y130.575 E5.96656
G1 X134.205 Y131.088 E5.9883
G1 X133.782 Y131.592 E6.01018
G1 X133.304 Y132.125 E6.034
G1 X132.729 Y132.723 E6.06159
G1 X132.239 Y133.201 E6.08436
G1 X131.763 Y133.636 E6.1058
G1 X131.247 Y134.077 E6.12838
G1 X130.73 Y134.492 E6.15043
G1 X130.217 Y134.879 E6.1718
G1 X129.646 Y135.283 E6.19507
G1 X129.113 Y135.637 E6.21635
G1 X128.586 Y135.964 E6.23698
G1 X128.005 Y136.3 E6.2593
G1 X127.352 Y136.65 E6.28394
G1 X126.757 Y136.945 E6.30603
G1 X126.152 Y137.222 E6.32816
G1 X125.525 Y137.485 E6.35077
G1 X124.879 Y137.732 E6.37378
G1 X124.268 Y137.944 E6.39529
G1 X123.615 Y138.149 E6.41805
G1 X122.953 Y138.334 E6.44091
G1 X122.285 Y138.497 E6.46378
G1 X121.655 Y138.63 E6.4852
G1 X120.979 Y138.752 E6.50805
G1 X120.299 Y138.852 E6.53091
G1 X119.59 Y138.933 E6.55464
G1 X118.942 Y138.987 E6.57627
G1 X118.294 Y139.021 E6.59785
G1 X117.61 Y139.035 E6.62061
G1 X116.87 Y139.026 E6.64522
G1 X116.225 Y138.999 E6.66669
G1 X115.597 Y138.953 E6.68764
G1 X114.906 Y138.879 E6.71075
G1 X114.168 Y138.776 E6.73553
G1 X113.521 Y138.665 E6.75737
G1 X112.916 Y138.542 E6.7779
G1 X112.293 Y138.396 E6.79918
G1 X111.574 Y138.204 E6.82394
G1 X110.898 Y137.999 E6.84743
G1 X110.283 Y137.79 E6.86903
G1 X109.697 Y137.572 E6.88983
G1 X109.019 Y137.296 E6.91418
G1 X108.372 Y137.006 E6.93776
G1 X107.775 Y136.715 E6.95985
G1 X107.184 Y136.404 E6.98206
G1 X106.566 Y136.053 E7.0057
G1 X106.034 Y135.73 E7.0264
G1 X105.522 Y135.398 E7.0467
G1 X104.968 Y135.013 E7.06913
G1 X104.377 Y134.574 E7.09362
G1 X103.86 Y134.165 E7.11555
G1 X103.321 Y133.71 E7.13901
G1 X102.808 Y133.247 E7.16199
G1 X102.353 Y132.809 E7.183
G1 X101.938 Y132.387 E7.20268
G1 X101.532 Y131.95 E7.22252
G1 X101.105 Y131.461 E7.24411
G1 X100.61 Y130.858 E7.27006
G1 X100.172 Y130.286 E7.29402
G1 X99.767 Y129.718 E7.31723
G1 X99.411 Y129.185 E7.33854
G1 X99.072 Y128.643 E7.35981
G1 X98.727 Y128.05 E7.38263
G1 X98.38 Y127.406 E7.40696
G1 X98.094 Y126.834 E7.42823
G1 X97.829 Y126.262 E7.44919
G1 X97.569 Y125.651 E7.47128
G1 X97.302 Y124.965 E7.49576
G1 X97.073 Y124.314 E7.51872
G1 X96.873 Y123.681 E7.5408
G1 X96.697 Y123.061 E7.56223
G1 X96.528 Y122.386 E7.58538
G1 X96.387 Y121.736 E7.6075
G1 X96.265 Y121.075 E7.62985
G1 X96.163 Y120.399 E7.65259
G1 X96.075 Y119.657 E7.67744
G1 X96.017 Y118.985 E7.69988
G1 X95.983 Y118.36 E7.7207
G1 X95.967 Y117.722 E7.74192
G1 X95.971 Y117.033 E7.76484
G1 X95.996 Y116.372 E7.78684
G1 X96.045 Y115.655 E7.81074
G1 X96.117 Y114.946 E7.83445
G1 X96.212 Y114.249 E7.85784
G1 X96.318 Y113.615 E7.87922
G1 X96.443 Y112.986 E7.90055
G1 X96.587 Y112.363 E7.92182
G1 X96.764 Y111.688 E7.94503
G1 X96.959 Y111.03 E7.96786
G1 X97.18 Y110.366 E7.99113
G1 X97.425 Y109.705 E8.01458
G1 X97.697 Y109.039 E8.03851
G1 X97.953 Y108.462 E8.0595
G1 X98.226 Y107.893 E8.08049
G1 X98.541 Y107.287 E8.10321
G1 X98.901 Y106.646 E8.12766
G1 X99.22 Y106.115 E8.14826
G1 X99.549 Y105.602 E8.16853
G1 X99.948 Y105.023 E8.19192
G1 X100.396 Y104.417 E8.21698
G1 X100.806 Y103.897 E8.23901
G1 X101.223 Y103.401 E8.26056
G1 X101.696 Y102.875 E8.28409
G1 X102.271 Y102.277 E8.31168
G1 X102.761 Y101.799 E8.33445
G1 X103.237 Y101.364 E8.3559
G1 X103.753 Y100.923 E8.37847
G1 X104.27 Y100.508 E8.40052
G1 X104.783 Y100.121 E8.4219
G1 X105.354 Y99.717 E8.44516
G1 X105.887 Y99.363 E8.46644
G1 X106.414 Y99.036 E8.48707
G1 X106.995 Y98.7 E8.50939
G1 X107.648 Y98.35 E8.53403
G1 X108.246 Y98.054 E8.55623
G1 X108.858 Y97.774 E8.57861
G1 X109.487 Y97.51 E8.6013
G1 X110.126 Y97.266 E8.62405
G1 X110.732 Y97.056 E8.64538
G1 X111.385 Y96.851 E8.66815
G1 X112.047 Y96.666 E8.69101
G1 X112.715 Y96.503 E8.71388
G1 X113.345 Y96.37 E8.73529
G1 X114.021 Y96.248 E8.75814
G1 X114.701 Y96.148 E8.781
G1 X115.41 Y96.067 E8.80474
G1 X116.058 Y96.013 E8.82636
G1 X116.706 Y95.979 E8.84795
G1 X117.39 Y95.965 E8.8707
G1 X118.13 Y95.974 E8.89531
G1 X118.775 Y96.001 E8.91679
G0 F6000 X118.805 Y95.602
G1 F1200 X119.433 Y95.648 E8.93773
G1 X120.149 Y95.725 E8.96168
G1 X120.887 Y95.828 E8.98646
G1 X121.559 Y95.943 E9.00914
G1 X122.164 Y96.066 E9.02967
G1 X122.81 Y96.217 E9.05174
G1 X123.529 Y96.409 E9.07649
G1 X124.23 Y96.622 E9.10086
G1 X124.845 Y96.831 E9.12246
G1 X125.453 Y97.058 E9.14405
G1 X126.131 Y97.334 E9.1684
G1 X126.804 Y97.634 E9.1929
G1 X127.401 Y97.925 E9.21499
G1 X128.014 Y98.248 E9.23804
G1 X128.632 Y98.599 E9.26168
G1 X129.184 Y98.935 E9.28317
G1 X129.696 Y99.267 E9.30347
G1 X130.27 Y99.666 E9.32672
G1 X130.861 Y100.105 E9.3512
G1 X131.398 Y100.529 E9.37396
G1 X131.937 Y100.984 E9.39742
G1 X132.47 Y101.465 E9.4213
G1 X132.925 Y101.903 E9.44231
G1 X133.351 Y102.337 E9.46253
G1 X133.749 Y102.765 E9.48197
G1 X134.192 Y103.271 E9.50434
G1 X134.695 Y103.883 E9.53069
G1 X135.151 Y104.479 E9.55565
G1 X135.552 Y105.041 E9.57861
G1 X135.922 Y105.594 E9.60074
G1 X136.265 Y106.142 E9.62224
G1 X136.625 Y106.76 E9.64603
G1 X136.972 Y107.404 E9.67036
G1 X137.269 Y107.998 E9.69245
G1 X137.534 Y108.57 E9.71342
G1 X137.804 Y109.204 E9.73634
G1 X138.071 Y109.89 E9.76082
G1 X138.309 Y110.566 E9.78466
G1 X138.509 Y111.199 E9.80674
G1 X138.692 Y111.845 E9.82907
G1 X138.857 Y112.505 E9.8517
G1 X138.996 Y113.144 E9.87345
G1 X139.121 Y113.81 E9.89598
G1 X139.233 Y114.538 E9.92048
G1 X139.321 Y115.277 E9.94524
G1 X139.381 Y115.975 E9.96854
G1 X139.416 Y116.613 E9.98979
G1 X139.433 Y117.28 E10.01198
G1 X139.429 Y117.969 E10.0349
G1 X139.403 Y118.655 E10.05773
G1 X139.354 Y119.372 E10.08163
G1 X139.281 Y120.095 E10.1058
G1 X139.189 Y120.776 E10.12866
G1 X139.078 Y121.444 E10.15118
G1 X138.95 Y122.089 E10.17305
G1 X138.799 Y122.743 E10.19538
G1 X138.623 Y123.413 E10.21842
G1 X138.426 Y124.078 E10.24148
G1 X138.205 Y124.745 E10.26485
G1 X137.948 Y125.439 E10.28947
G1 X137.678 Y126.101 E10.31325
G1 X137.409 Y126.708 E10.33533
G1 X137.144 Y127.26 E10.3557
G1 X136.833 Y127.861 E10.3782
G1 X136.469 Y128.513 E10.40304
G1 X136.129 Y129.081 E10.42506
G1 X135.793 Y129.606 E10.44579
G1 X135.374 Y130.214 E10.47035
G1 X134.932 Y130.812 E10.49508
G1 X134.512 Y131.346 E10.51768
G1 X134.089 Y131.85 E10.53956
G1 X133.592 Y132.402 E10.56427
G1 X133.017 Y133 E10.59186
G1 X132.509 Y133.496 E10.61547
G1 X132.033 Y133.931 E10.63692
G1 X131.498 Y134.389 E10.66034
G1 X130.981 Y134.804 E10.68239
G1 X130.448 Y135.206 E10.7046
G1 X129.877 Y135.61 E10.72786
G1 X129.324 Y135.977 E10.74994
G1 X128.797 Y136.304 E10.77057
G1 X128.193 Y136.652 E10.79375
G1 X127.54 Y137.002 E10.81839
G1 X126.923 Y137.309 E10.84131
G1 X126.318 Y137.586 E10.86345
G1 X125.668 Y137.859 E10.88689
G1 X125.022 Y138.106 E10.9099
G1 X124.388 Y138.326 E10.93222
G1 X123.735 Y138.531 E10.95498
G1 X123.048 Y138.722 E10.9787
G1 X122.38 Y138.885 E11.00157
G1 X121.726 Y139.024 E11.02381
G1 X121.05 Y139.146 E11.04665
G1 X120.345 Y139.25 E11.07036
G1 X119.636 Y139.331 E11.09409
G1 X118.963 Y139.387 E11.11655
G1 X118.315 Y139.421 E11.13813
G1 X117.605 Y139.435 E11.16175
G1 X116.865 Y139.426 E11.18637
G1 X116.195 Y139.398 E11.20867
G1 X115.567 Y139.352 E11.22961
G1 X114.851 Y139.275 E11.25357
G1 X114.113 Y139.172 E11.27835
G1 X113.441 Y139.057 E11.30103
G1 X112.836 Y138.934 E11.32156
G1 X112.19 Y138.783 E11.34362
G1 X111.471 Y138.591 E11.36838
G1 X110.77 Y138.378 E11.39274
G1 X110.155 Y138.169 E11.41435
G1 X109.547 Y137.942 E11.43593
G1 X108.869 Y137.666 E11.46028
