;FLAVOR:Marlin
;TIME:6927
;Filament used: 4.32872m
;Layer height: 0.2
;MINX:88.02
;MINY:88.018
;MINZ:0.2
;MAXX:146.98
;MAXY:146.982
;MAXZ:55
;Generated with Cura_SteamEngine master
M140 S50
M105
M190 S50
M104 S200
M105
M109 S200
M82 ;absolute extrusion mode
; Ender 3 Custom Start G-code
G92 E0 ; Reset Extruder
G28 ; Home all axes
G1 Z2.0 F3000 ; Move Z Axis up little to prevent scratching of Heat Bed
G1 X0.1 Y20 Z0.3 F5000.0 ; Move to start position
G1 X0.1 Y200.0 Z0.3 F1500.0 E15 ; Draw the first line
G1 X0.4 Y200.0 Z0.3 F5000.0 ; Move to side a little
G1 X0.4 Y20 Z0.3 F1500.0 E30 ; Draw the second line
G92 E0 ; Reset Extruder
G1 Z2.0 F3000 ; Move Z Axis up little to prevent scratching of Heat Bed
G1 X5 Y20 Z0.3 F5000.0 ; Move over to prevent blob squish
G92 E0
G92 E0
G1 F2700 E-5
;LAYER_COUNT:275
;LAYER:0
M107
G0 F6000 X119.47 Y88.885 Z0.2
;TYPE:SKIRT
G1 F2700 E0
G1 F1200 X120.184 Y88.943 E0.02383
G1 X121.458 Y89.092 E0.06649
G1 X122.157 Y89.198 E0.09
G1 X123.429 Y89.437 E0.13305
G1 X123.79 Y89.512 E0.14531
G1 X124.22 Y89.609 E0.15997
G1 X124.626 Y89.71 E0.17389
G1 X125.187 Y89.861 E0.19321
G1 X125.505 Y89.952 E0.20421
G1 X126.221 Y90.175 E0.22916
G1 X127.268 Y90.531 E0.26594
G1 X127.901 Y90.77 E0.28844
G1 X129.12 Y91.277 E0.33235
G1 X129.78 Y91.58 E0.35651
G1 X130.953 Y92.169 E0.40016
G1 X131.583 Y92.513 E0.42404
G1 X132.671 Y93.159 E0.46612
G1 X133.265 Y93.54 E0.48959
G1 X134.341 Y94.284 E0.5331
G1 X134.898 Y94.698 E0.55619
G1 X135.913 Y95.507 E0.59936
G1 X136.472 Y95.987 E0.62386
G1 X137.392 Y96.836 E0.6655
G1 X137.888 Y97.325 E0.68867
G1 X138.803 Y98.293 E0.73297
G1 X139.282 Y98.838 E0.7571
G1 X140.077 Y99.809 E0.79884
G1 X140.508 Y100.375 E0.8225
G1 X141.271 Y101.452 E0.8664
G1 X141.663 Y102.048 E0.89013
G1 X142.329 Y103.143 E0.93276
G1 X142.664 Y103.737 E0.95544
G1 X143.236 Y104.837 E0.99668
G1 X143.412 Y105.194 E1.00992
G1 X143.734 Y105.887 E1.03533
G1 X144.118 Y106.802 E1.06834
G1 X144.273 Y107.201 E1.08257
G1 X144.399 Y107.546 E1.09479
G1 X144.772 Y108.619 E1.13257
G1 X144.971 Y109.255 E1.15474
G1 X145.309 Y110.48 E1.197
G1 X145.474 Y111.173 E1.2207
G1 X145.736 Y112.47 E1.26471
G1 X145.852 Y113.168 E1.28824
G1 X146.018 Y114.438 E1.33084
G1 X146.087 Y115.171 E1.35533
G1 X146.164 Y116.502 E1.39967
G1 X146.18 Y117.199 E1.42286
G1 X146.167 Y118.424 E1.4636
G1 X146.156 Y118.806 E1.47632
G1 X146.117 Y119.55 E1.50109
G1 X146.068 Y120.158 E1.52138
G1 X146.018 Y120.624 E1.53697
G1 X145.93 Y121.305 E1.55981
G1 X145.757 Y122.427 E1.59757
G1 X145.697 Y122.775 E1.60931
G1 X145.551 Y123.523 E1.63466
G1 X145.411 Y124.144 E1.65583
G1 X145.215 Y124.904 E1.68194
G1 X145.117 Y125.249 E1.69387
G1 X144.791 Y126.328 E1.73136
G1 X144.579 Y126.956 E1.7534
G1 X144.125 Y128.168 E1.79645
G1 X143.977 Y128.539 E1.80973
G1 X143.691 Y129.213 E1.83409
G1 X143.425 Y129.791 E1.85525
G1 X143.054 Y130.536 E1.88293
G1 X142.886 Y130.855 E1.89492
G1 X142.376 Y131.781 E1.93008
G1 X142.205 Y132.078 E1.94148
G1 X141.795 Y132.762 E1.96801
G1 X141.651 Y132.991 E1.977
G1 X141.258 Y133.581 E2.00058
G1 X141.017 Y133.928 E2.01463
G1 X140.801 Y134.227 E2.0269
G1 X140.119 Y135.137 E2.06472
G1 X139.706 Y135.652 E2.08668
G1 X138.863 Y136.637 E2.1298
G1 X138.376 Y137.168 E2.15377
G1 X137.441 Y138.116 E2.19805
G1 X136.912 Y138.615 E2.22224
G1 X135.947 Y139.463 E2.26497
G1 X135.4 Y139.911 E2.28848
G1 X134.38 Y140.689 E2.33115
G1 X133.802 Y141.099 E2.35472
G1 X132.743 Y141.796 E2.39689
G1 X132.149 Y142.159 E2.42004
G1 X131.024 Y142.794 E2.46301
G1 X130.373 Y143.131 E2.48739
G1 X129.177 Y143.697 E2.5314
G1 X128.533 Y143.975 E2.55473
G1 X127.353 Y144.437 E2.59688
G1 X126.692 Y144.67 E2.62019
G1 X125.486 Y145.049 E2.66223
G1 X125.089 Y145.165 E2.67599
G1 X124.373 Y145.355 E2.70063
G1 X123.844 Y145.481 E2.71872
G1 X123.408 Y145.574 E2.73354
G1 X123.007 Y145.654 E2.74714
G1 X122.628 Y145.722 E2.75995
G1 X121.513 Y145.901 E2.79751
G1 X120.859 Y145.984 E2.81944
G1 X119.551 Y146.108 E2.86314
G1 X118.829 Y146.151 E2.88719
G1 X117.519 Y146.182 E2.93078
G1 X116.808 Y146.174 E2.95442
G1 X115.53 Y146.115 E2.99698
G1 X114.815 Y146.057 E3.02084
G1 X113.541 Y145.908 E3.0635
G1 X112.841 Y145.801 E3.08705
G1 X111.57 Y145.562 E3.13006
G1 X111.208 Y145.487 E3.14236
G1 X110.47 Y145.316 E3.16756
G1 X109.495 Y145.048 E3.20119
G1 X109.094 Y144.926 E3.21513
G1 X108.774 Y144.823 E3.22631
G1 X107.726 Y144.466 E3.26313
G1 X107.106 Y144.232 E3.28517
G1 X105.889 Y143.727 E3.329
G1 X105.215 Y143.418 E3.35366
G1 X104.04 Y142.827 E3.39741
G1 X103.421 Y142.489 E3.42086
G1 X102.333 Y141.844 E3.46293
G1 X101.734 Y141.46 E3.4866
G1 X100.658 Y140.716 E3.53011
G1 X100.093 Y140.295 E3.55354
G1 X99.079 Y139.485 E3.59671
G1 X98.532 Y139.016 E3.62067
G1 X97.611 Y138.167 E3.66233
G1 X97.111 Y137.674 E3.68569
G1 X96.196 Y136.706 E3.72999
G1 X95.721 Y136.166 E3.75391
G1 X94.925 Y135.195 E3.79567
G1 X94.492 Y134.627 E3.81943
G1 X93.737 Y133.562 E3.86285
G1 X93.343 Y132.963 E3.88669
G1 X92.668 Y131.853 E3.9299
G1 X92.332 Y131.256 E3.95269
G1 X91.761 Y130.157 E3.99388
G1 X91.583 Y129.797 E4.00724
G1 X91.263 Y129.107 E4.03253
G1 X91.123 Y128.786 E4.04418
G1 X90.979 Y128.439 E4.05668
G1 X90.742 Y127.836 E4.07823
G1 X90.601 Y127.454 E4.09177
G1 X90.228 Y126.381 E4.12955
G1 X90.029 Y125.743 E4.15178
G1 X89.691 Y124.517 E4.19408
G1 X89.528 Y123.836 E4.21737
G1 X89.265 Y122.541 E4.26132
G1 X89.146 Y121.824 E4.28549
G1 X88.981 Y120.553 E4.32812
G1 X88.913 Y119.83 E4.35228
G1 X88.836 Y118.5 E4.39659
G1 X88.82 Y117.802 E4.41981
G1 X88.833 Y116.577 E4.46055
G1 X88.844 Y116.189 E4.47346
G1 X88.885 Y115.43 E4.49874
G1 X88.932 Y114.844 E4.5183
G1 X89.025 Y114.024 E4.54575
G1 X89.071 Y113.691 E4.55693
G1 X89.244 Y112.571 E4.59462
G1 X89.301 Y112.236 E4.60592
G1 X89.455 Y111.446 E4.63269
G1 X89.689 Y110.456 E4.66653
G1 X89.792 Y110.07 E4.67981
G1 X89.884 Y109.747 E4.69099
G1 X90.21 Y108.669 E4.72844
G1 X90.42 Y108.047 E4.75028
G1 X90.877 Y106.826 E4.79364
G1 X91.029 Y106.444 E4.80731
G1 X91.325 Y105.75 E4.83241
G1 X91.455 Y105.464 E4.84286
G1 X91.615 Y105.129 E4.85521
G1 X91.916 Y104.526 E4.87762
G1 X92.097 Y104.18 E4.89061
G1 X92.628 Y103.211 E4.92736
G1 X92.985 Y102.61 E4.95061
G1 X93.711 Y101.477 E4.99537
G1 X94.12 Y100.886 E5.01927
G1 X94.877 Y99.87 E5.06141
G1 X95.313 Y99.325 E5.08463
G1 X96.143 Y98.357 E5.12704
G1 X96.624 Y97.833 E5.15069
G1 X97.56 Y96.884 E5.19503
G1 X98.085 Y96.388 E5.21905
G1 X99.049 Y95.54 E5.26175
G1 X99.6 Y95.089 E5.28543
G1 X100.62 Y94.311 E5.3281
G1 X101.198 Y93.901 E5.35167
G1 X102.257 Y93.204 E5.39384
G1 X102.851 Y92.841 E5.41699
G1 X103.976 Y92.206 E5.45996
G1 X104.627 Y91.869 E5.48434
G1 X105.823 Y91.303 E5.52835
G1 X106.467 Y91.025 E5.55168
G1 X107.647 Y90.563 E5.59383
G1 X108.308 Y90.33 E5.61714
G1 X109.514 Y89.951 E5.65918
G1 X109.911 Y89.835 E5.67294
G1 X110.627 Y89.645 E5.69758
G1 X111.156 Y89.519 E5.71567
G1 X111.592 Y89.426 E5.73049
G1 X111.993 Y89.346 E5.74409
G1 X112.372 Y89.278 E5.7569
G1 X113.487 Y89.099 E5.79446
G1 X114.141 Y89.016 E5.81639
G1 X115.449 Y88.892 E5.86009
G1 X116.171 Y88.849 E5.88414
G1 X117.481 Y88.818 E5.92772
G1 X118.193 Y88.826 E5.95141
G1 X119.47 Y88.885 E5.99393
G0 F6000 X119.488 Y88.485
G1 F1200 X120.23 Y88.546 E6.01869
G1 X121.504 Y88.695 E6.06135
G1 X122.23 Y88.805 E6.08577
G1 X123.502 Y89.044 E6.12882
G1 X123.878 Y89.122 E6.14159
G1 X124.308 Y89.219 E6.15625
G1 X124.73 Y89.323 E6.17071
G1 X125.291 Y89.474 E6.19003
G1 X125.621 Y89.569 E6.20145
G1 X126.022 Y89.691 E6.21539
G1 X126.349 Y89.796 E6.22682
G1 X127.396 Y90.152 E6.2636
G1 X128.055 Y90.401 E6.28703
G1 X129.274 Y90.908 E6.33094
G1 X129.96 Y91.222 E6.35603
G1 X131.133 Y91.811 E6.39969
G1 X131.788 Y92.17 E6.42453
G1 X132.876 Y92.816 E6.46662
G1 X133.493 Y93.211 E6.49099
G1 X134.569 Y93.955 E6.5345
G1 X135.147 Y94.385 E6.55846
G1 X136.162 Y95.194 E6.60163
G1 X136.744 Y95.693 E6.62712
G1 X137.664 Y96.542 E6.66876
G1 X138.178 Y97.051 E6.69282
G1 X139.093 Y98.019 E6.73712
G1 X139.592 Y98.585 E6.76222
G1 X140.387 Y99.556 E6.80396
G1 X140.834 Y100.143 E6.8285
G1 X141.597 Y101.22 E6.8724
G1 X142.004 Y101.84 E6.89707
G1 X142.67 Y102.935 E6.9397
G1 X143.018 Y103.553 E6.96328
G1 X143.59 Y104.653 E7.00452
G1 X143.774 Y105.023 E7.01827
G1 X144.101 Y105.727 E7.04408
G1 X144.491 Y106.658 E7.07766
G1 X144.646 Y107.057 E7.09189
G1 X144.777 Y107.414 E7.10454
G1 X145.15 Y108.487 E7.14232
G1 X145.356 Y109.149 E7.16538
G1 X145.694 Y110.374 E7.20765
G1 X145.866 Y111.094 E7.23227
G1 X146.128 Y112.391 E7.27628
G1 X146.249 Y113.116 E7.30073
G1 X146.415 Y114.386 E7.34333
G1 X146.486 Y115.148 E7.36878
G1 X146.563 Y116.479 E7.41312
G1 X146.58 Y117.203 E7.43721
G1 X146.567 Y118.428 E7.47796
G1 X146.556 Y118.825 E7.49117
G1 X146.516 Y119.579 E7.51628
G1 X146.466 Y120.199 E7.53697
G1 X146.415 Y120.672 E7.55279
G1 X146.371 Y121.033 E7.56489
G1 X146.325 Y121.366 E7.57607
G1 X146.152 Y122.488 E7.61383
G1 X146.09 Y122.849 E7.62601
G1 X145.942 Y123.609 E7.65176
G1 X145.705 Y124.616 E7.68617
G1 X145.602 Y125.006 E7.69959
G1 X145.5 Y125.365 E7.712
G1 X145.174 Y126.444 E7.74949
G1 X144.953 Y127.096 E7.77239
G1 X144.499 Y128.308 E7.81543
G1 X144.346 Y128.694 E7.82924
G1 X144.055 Y129.378 E7.85397
G1 X143.784 Y129.967 E7.87553
G1 X143.411 Y130.716 E7.90336
G1 X143.236 Y131.048 E7.91584
G1 X142.726 Y131.974 E7.951
G1 X142.549 Y132.282 E7.96282
G1 X142.133 Y132.975 E7.9897
G1 X141.809 Y133.481 E8.00969
G1 X141.345 Y134.157 E8.03696
G1 X141.121 Y134.467 E8.04968
G1 X140.439 Y135.377 E8.0875
G1 X140.01 Y135.912 E8.11031
G1 X139.167 Y136.897 E8.15343
G1 X138.661 Y137.448 E8.17831
G1 X137.726 Y138.396 E8.2226
G1 X137.176 Y138.915 E8.24775
G1 X136.211 Y139.763 E8.29048
G1 X135.643 Y140.229 E8.31492
G1 X134.623 Y141.007 E8.35758
G1 X134.022 Y141.433 E8.38208
G1 X132.963 Y142.13 E8.42425
G1 X132.345 Y142.507 E8.44833
G1 X131.22 Y143.142 E8.4913
G1 X130.544 Y143.492 E8.51661
G1 X129.348 Y144.058 E8.56062
G1 X128.679 Y144.347 E8.58486
G1 X127.499 Y144.809 E8.62701
G1 X126.812 Y145.051 E8.65124
G1 X125.606 Y145.43 E8.69328
G1 X125.193 Y145.551 E8.7076
G1 X124.468 Y145.744 E8.73255
G1 X123.486 Y145.966 E8.76603
G1 X123.085 Y146.046 E8.77963
G1 X122.691 Y146.117 E8.79295
G1 X121.576 Y146.296 E8.83051
G1 X120.896 Y146.383 E8.85331
G1 X119.588 Y146.507 E8.89701
G1 X118.839 Y146.551 E8.92197
G1 X117.529 Y146.582 E8.96555
G1 X116.789 Y146.574 E8.99016
G1 X115.511 Y146.515 E9.03271
G1 X114.769 Y146.454 E9.05748
G1 X113.495 Y146.305 E9.10014
G1 X112.767 Y146.194 E9.12463
G1 X111.496 Y145.955 E9.16765
G1 X111.12 Y145.878 E9.18041
G1 X110.686 Y145.78 E9.19521
G1 X110.037 Y145.617 E9.21747
G1 X109.379 Y145.431 E9.24021
G1 X108.978 Y145.309 E9.25415
G1 X108.645 Y145.202 E9.26578
G1 X107.597 Y144.845 E9.30261
G1 X106.952 Y144.602 E9.32553
G1 X105.735 Y144.097 E9.36936
G1 X105.035 Y143.776 E9.39497
G1 X103.86 Y143.185 E9.43871
G1 X103.217 Y142.833 E9.4631
G1 X102.129 Y142.188 E9.50516
G1 X101.506 Y141.789 E9.52977
G1 X100.43 Y141.045 E9.57328
G1 X99.843 Y140.608 E9.59762
G1 X98.829 Y139.798 E9.64079
G1 X98.261 Y139.31 E9.66569
G1 X97.34 Y138.461 E9.70735
G1 X96.821 Y137.948 E9.73163
G1 X95.906 Y136.98 E9.77593
G1 X95.411 Y136.419 E9.80081
G1 X94.615 Y135.448 E9.84257
G1 X94.166 Y134.858 E9.86723
G1 X93.411 Y133.793 E9.91065
G1 X93.001 Y133.171 E9.93543
G1 X92.326 Y132.061 E9.97864
G1 X91.977 Y131.44 E10.00233
G1 X91.406 Y130.341 E10.04352
G1 X91.221 Y129.967 E10.0574
G1 X90.896 Y129.267 E10.08307
G1 X90.756 Y128.946 E10.09472
G1 X90.607 Y128.585 E10.10771
G1 X90.37 Y127.982 E10.12926
G1 X90.223 Y127.586 E10.14331
G1 X89.85 Y126.513 E10.18109
G1 X89.643 Y125.849 E10.20422
G1 X89.305 Y124.623 E10.24652
G1 X89.136 Y123.916 E10.2707
G1 X88.873 Y122.621 E10.31465
G1 X88.749 Y121.876 E10.33977
G1 X88.584 Y120.605 E10.3824
G1 X88.514 Y119.853 E10.40752
G1 X88.437 Y118.523 E10.45183
G1 X88.42 Y117.798 E10.47595
G1 X88.433 Y116.573 E10.51669
G1 X88.445 Y116.17 E10.5301
G1 X88.486 Y115.4 E10.55575
G1 X88.534 Y114.803 E10.57567
G1 X88.628 Y113.976 E10.60335
G1 X88.675 Y113.63 E10.61497
G1 X88.848 Y112.51 E10.65266
G1 X88.908 Y112.161 E10.66444
G1 X89.064 Y111.36 E10.69158
G1 X89.245 Y110.577 E10.71831
G1 X89.405 Y109.967 E10.73928
G1 X89.501 Y109.632 E10.75088
G1 X89.827 Y108.554 E10.78833
G1 X90.046 Y107.906 E10.81108
G1 X90.503 Y106.685 E10.85445
G1 X90.66 Y106.289 E10.86861
G1 X90.961 Y105.585 E10.89408
G1 X91.091 Y105.299 E10.90453
G1 X91.257 Y104.951 E10.91735
G1 X91.558 Y104.348 E10.93977
G1 X91.746 Y103.988 E10.95328
G1 X92.277 Y103.019 E10.99003
G1 X92.648 Y102.394 E11.0142
G1 X93.374 Y101.261 E11.05896
G1 X93.799 Y100.647 E11.08379
G1 X94.556 Y99.631 E11.12594
G1 X95.009 Y99.064 E11.15007
G1 X95.839 Y98.096 E11.19248
G1 X96.339 Y97.553 E11.21703
G1 X97.275 Y96.604 E11.26137
G1 X97.821 Y96.088 E11.28635
G1 X98.785 Y95.24 E11.32906
G1 X99.357 Y94.771 E11.35366
G1 X100.377 Y93.993 E11.39633
G1 X100.978 Y93.567 E11.42083
G1 X102.037 Y92.87 E11.463
G1 X102.655 Y92.493 E11.48707
G1 X103.78 Y91.858 E11.53004
G1 X104.456 Y91.508 E11.55536
G1 X105.652 Y90.942 E11.59937
G1 X106.321 Y90.653 E11.62361
G1 X107.501 Y90.191 E11.66575
G1 X108.188 Y89.949 E11.68998
G1 X109.394 Y89.57 E11.73203
G1 X109.807 Y89.449 E11.74634
G1 X110.532 Y89.256 E11.77129
G1 X111.514 Y89.034 E11.80478
G1 X111.915 Y88.954 E11.81838
G1 X112.309 Y88.883 E11.83169
G1 X113.424 Y88.704 E11.86925
G1 X114.104 Y88.617 E11.89205
G1 X115.412 Y88.493 E11.93575
G1 X116.161 Y88.449 E11.96071
G1 X117.471 Y88.418 E12.00429
G1 X118.211 Y88.426 E12.02891
G1 X119.488 Y88.485 E12.07142
G0 F6000 X119.507 Y88.086
G1 F1200 X120.277 Y88.148 E12.09712
G1 X121.551 Y88.297 E12.13978
G1 X122.304 Y88.412 E12.16512
G1 X123.576 Y88.651 E12.20816
G1 X123.966 Y88.732 E12.22141
G1 X124.396 Y88.829 E12.23607
G1 X124.834 Y88.937 E12.25108
G1 X125.395 Y89.088 E12.2704
G1 X125.738 Y89.186 E12.28226
G1 X126.139 Y89.308 E12.2962
G1 X126.478 Y89.418 E12.30806
G1 X127.525 Y89.774 E12.34484
G1 X128.208 Y90.031 E12.36911
G1 X129.427 Y90.538 E12.41302
G1 X130.139 Y90.865 E12.43908
G1 X131.312 Y91.454 E12.48274
G1 X131.992 Y91.826 E12.50852
G1 X133.08 Y92.472 E12.5506
G1 X133.72 Y92.882 E12.57588
G1 X134.796 Y93.626 E12.61939
G1 X135.396 Y94.072 E12.64426
G1 X136.411 Y94.881 E12.68743
G1 X137.015 Y95.399 E12.71389
G1 X137.935 Y96.248 E12.75553
G1 X138.469 Y96.776 E12.78051
G1 X139.384 Y97.744 E12.82481
G1 X139.901 Y98.332 E12.85085
G1 X140.696 Y99.303 E12.89259
G1 X141.161 Y99.912 E12.91808
G1 X141.924 Y100.989 E12.96198
G1 X142.346 Y101.632 E12.98756
G1 X143.012 Y102.727 E13.03019
G1 X143.373 Y103.368 E13.05465
G1 X143.945 Y104.468 E13.09589
G1 X144.136 Y104.852 E13.11016
G1 X144.334 Y105.272 E13.1256
G1 X144.61 Y105.895 E13.14826
G1 X144.863 Y106.513 E13.17047
G1 X145.018 Y106.912 E13.18471
G1 X145.155 Y107.283 E13.19786
G1 X145.528 Y108.356 E13.23565
G1 X145.742 Y109.042 E13.25955
G1 X146.08 Y110.267 E13.30181
G1 X146.258 Y111.015 E13.32739
G1 X146.52 Y112.312 E13.3714
G1 X146.645 Y113.064 E13.39675
G1 X146.811 Y114.334 E13.43935
G1 X146.886 Y115.125 E13.46578
G1 X146.963 Y116.456 E13.51012
G1 X146.98 Y117.208 E13.53514
G1 X146.967 Y118.433 E13.57589
G1 X146.955 Y118.845 E13.58959
G1 X146.915 Y119.609 E13.61504
G1 X146.864 Y120.239 E13.63606
G1 X146.812 Y120.721 E13.65219
G1 X146.721 Y121.427 E13.67586
G1 X146.548 Y122.549 E13.71362
G1 X146.483 Y122.924 E13.72628
G1 X146.332 Y123.695 E13.75241
G1 X146.187 Y124.337 E13.7743
G1 X145.988 Y125.108 E13.80079
G1 X145.883 Y125.48 E13.81364
G1 X145.557 Y126.559 E13.85113
G1 X145.328 Y127.237 E13.87493
G1 X144.874 Y128.449 E13.91798
G1 X144.715 Y128.849 E13.9323
G1 X144.42 Y129.542 E13.95735
G1 X144.287 Y129.837 E13.96811
G1 X143.951 Y130.535 E13.99388
G1 X143.768 Y130.897 E14.00737
G1 X143.586 Y131.241 E14.02031
G1 X143.076 Y132.167 E14.05547
G1 X142.893 Y132.487 E14.06773
G1 X142.472 Y133.188 E14.09493
G1 X142.328 Y133.417 E14.10393
G1 X141.915 Y134.038 E14.12873
G1 X141.674 Y134.385 E14.14278
G1 X141.441 Y134.707 E14.156
G1 X140.759 Y135.617 E14.19383
G1 X140.314 Y136.172 E14.21749
G1 X139.471 Y137.157 E14.26061
G1 X138.946 Y137.729 E14.28643
G1 X138.011 Y138.677 E14.33072
G1 X137.44 Y139.216 E14.35683
G1 X136.475 Y140.064 E14.39956
G1 X135.885 Y140.547 E14.42492
