;FLAVOR:Marlin
;TIME:9445
;Filament used: 7.53236m
;Layer height: 0.2
;MINX:57
;MINY:73.5
;MINZ:0.2
;MAXX:178
;MAXY:155.5
;MAXZ:26
;Generated with Cura_SteamEngine master
M140 S50
M105
M190 S50
M104 S200
M105
M109 S200
M82 ;absolute extrusion mode
; Ender 3 Custom Start G-code
G92 E0 ; Reset Extruder
G28 ; Home all axes
G1 Z2.0 F3000 ; Move Z Axis up little to prevent scratching of Heat Bed
G1 X0.1 Y20 Z0.3 F5000.0 ; Move to start position
G1 X0.1 Y200.0 Z0.3 F1500.0 E15 ; Draw the first line
G1 X0.4 Y200.0 Z0.3 F5000.0 ; Move to side a little
G1 X0.4 Y20 Z0.3 F1500.0 E30 ; Draw the second line
G92 E0 ; Reset Extruder
G1 Z2.0 F3000 ; Move Z Axis up little to prevent scratching of Heat Bed
G1 X5 Y20 Z0.3 F5000.0 ; Move over to prevent blob squish
G92 E0
G92 E0
G1 F2700 E-5
;LAYER_COUNT:130
;LAYER:0
M107
G0 F6000 X167.137 Y74.311 Z0.2
;TYPE:SKIRT
G1 F2700 E0
G1 F1200 X168.039 Y74.364 E0.03005
G1 X168.932 Y74.496 E0.06008
G1 X169.81 Y74.707 E0.09011
G1 X170.666 Y74.995 E0.12015
G1 X171.493 Y75.357 E0.15018
G1 X172.285 Y75.792 E0.18023
G1 X173.036 Y76.294 E0.21027
G1 X173.739 Y76.861 E0.24031
G1 X174.389 Y77.488 E0.27035
G1 X174.981 Y78.17 E0.30039
G1 X175.511 Y78.901 E0.33042
G1 X175.973 Y79.677 E0.36046
G1 X176.366 Y80.49 E0.39049
G1 X176.684 Y81.335 E0.42052
G1 X176.927 Y82.205 E0.45056
G1 X177.092 Y83.093 E0.4806
G1 X177.187 Y84.223 E0.51832
G1 X177.2 Y84.83 E0.53851
G1 X177.2 Y143.764 E2.49867
G1 X177.189 Y144.627 E2.52737
G1 X177.137 Y145.529 E2.55742
G1 X177.005 Y146.422 E2.58745
G1 X176.794 Y147.3 E2.61748
G1 X176.507 Y148.157 E2.64754
G1 X176.145 Y148.984 E2.67757
G1 X175.711 Y149.776 E2.70761
G1 X175.209 Y150.527 E2.73765
G1 X174.642 Y151.23 E2.76769
G1 X174.016 Y151.881 E2.79773
G1 X173.334 Y152.473 E2.82777
G1 X172.603 Y153.003 E2.8578
G1 X171.827 Y153.466 E2.88785
G1 X171.014 Y153.859 E2.91789
G1 X170.169 Y154.178 E2.94793
G1 X169.3 Y154.421 E2.97794
G1 X168.412 Y154.586 E3.00798
G1 X167.436 Y154.676 E3.04058
G1 X167.116 Y154.69 E3.05123
G1 X166.67 Y154.7 E3.06607
G1 X165.561 Y154.699 E3.10295
G1 X164.863 Y154.689 E3.12617
G1 X163.961 Y154.636 E3.15623
G1 X163.068 Y154.504 E3.18625
G1 X162.19 Y154.293 E3.21628
G1 X161.334 Y154.005 E3.24632
G1 X160.298 Y153.537 E3.28413
G1 X157.944 Y152.311 E3.37241
G1 X155.649 Y151.194 E3.4573
G1 X153.33 Y150.145 E3.54196
G1 X150.984 Y149.161 E3.62657
G1 X148.627 Y148.254 E3.71057
G1 X146.228 Y147.407 E3.79519
G1 X143.803 Y146.626 E3.87992
G1 X141.367 Y145.916 E3.96431
G1 X138.945 Y145.285 E4.04756
G1 X136.404 Y144.698 E4.1343
G1 X133.965 Y144.209 E4.21704
G1 X131.441 Y143.775 E4.30222
G1 X128.929 Y143.417 E4.38661
G1 X126.418 Y143.13 E4.47067
G1 X123.861 Y142.912 E4.55602
G1 X121.369 Y142.77 E4.63904
G1 X118.799 Y142.696 E4.72456
G1 X116.266 Y142.694 E4.80881
G1 X113.735 Y142.765 E4.89302
G1 X111.192 Y142.908 E4.97773
G1 X108.644 Y143.123 E5.06278
G1 X106.165 Y143.404 E5.14576
G1 X103.592 Y143.769 E5.2322
G1 X101.134 Y144.189 E5.31514
G1 X98.636 Y144.689 E5.39987
G1 X96.178 Y145.254 E5.48375
G1 X93.683 Y145.901 E5.56948
G1 X91.245 Y146.609 E5.65392
G1 X88.857 Y147.376 E5.73734
G1 X86.431 Y148.231 E5.82289
G1 X84.081 Y149.135 E5.90664
G1 X81.726 Y150.119 E5.99153
G1 X79.422 Y151.158 E6.07559
G1 X77.11 Y152.281 E6.16108
G1 X75.297 Y153.219 E6.22897
G1 X74.811 Y153.477 E6.24728
G1 X73.996 Y153.865 E6.2773
G1 X73.149 Y154.179 E6.30734
G1 X72.278 Y154.417 E6.33737
G1 X71.389 Y154.577 E6.36742
G1 X70.565 Y154.655 E6.39495
G1 X70.206 Y154.674 E6.4069
G1 X69.739 Y154.688 E6.42244
G1 X68.611 Y154.695 E6.45996
G1 X67.948 Y154.691 E6.48201
G1 X67.046 Y154.645 E6.51205
G1 X66.152 Y154.52 E6.54208
G1 X65.272 Y154.317 E6.57211
G1 X64.414 Y154.036 E6.60214
G1 X63.584 Y153.681 E6.63217
G1 X62.788 Y153.253 E6.66223
G1 X62.034 Y152.757 E6.69224
G1 X61.326 Y152.196 E6.72229
G1 X60.671 Y151.574 E6.75233
G1 X60.073 Y150.897 E6.78238
G1 X59.537 Y150.17 E6.81242
G1 X59.068 Y149.398 E6.84246
G1 X58.669 Y148.588 E6.87249
G1 X58.343 Y147.746 E6.90252
G1 X58.093 Y146.878 E6.93257
G1 X57.921 Y145.992 E6.96259
G1 X57.812 Y144.672 E7.00664
G1 X57.8 Y143.926 E7.03145
G1 X57.8 Y85.174 E8.98555
G1 X57.801 Y85.021 E8.99064
G1 X57.811 Y84.356 E9.01276
G1 X57.865 Y83.454 E9.04282
G1 X57.998 Y82.561 E9.07285
G1 X58.209 Y81.683 E9.10288
G1 X58.498 Y80.827 E9.13293
G1 X58.861 Y80 E9.16297
G1 X59.295 Y79.209 E9.19298
G1 X59.798 Y78.458 E9.22304
G1 X60.366 Y77.756 E9.25307
G1 X60.993 Y77.106 E9.28311
G1 X61.675 Y76.514 E9.31315
G1 X62.407 Y75.985 E9.34319
G1 X63.183 Y75.523 E9.37323
G1 X63.997 Y75.132 E9.40326
G1 X64.842 Y74.813 E9.4333
G1 X65.712 Y74.571 E9.46334
G1 X66.6 Y74.407 E9.49337
G1 X67.723 Y74.313 E9.53085
G1 X68.33 Y74.3 E9.55105
G1 X166.293 Y74.3 E12.80931
G1 X166.439 Y74.301 E12.81417
G1 X167.137 Y74.311 E12.83738
G0 F6000 X167.143 Y73.911
G1 F1200 X168.062 Y73.964 E12.868
G1 X168.973 Y74.097 E12.89862
G1 X169.869 Y74.308 E12.92924
G1 X170.743 Y74.596 E12.95984
G1 X171.59 Y74.959 E12.99049
G1 X172.401 Y75.394 E13.0211
G1 X173.171 Y75.898 E13.05171
G1 X173.895 Y76.467 E13.08234
G1 X174.567 Y77.097 E13.11298
G1 X175.182 Y77.782 E13.14359
G1 X175.735 Y78.518 E13.17421
G1 X176.222 Y79.299 E13.20483
G1 X176.639 Y80.12 E13.23545
G1 X176.984 Y80.974 E13.26609
G1 X177.253 Y81.854 E13.29669
G1 X177.445 Y82.755 E13.32733
G1 X177.558 Y83.668 E13.35793
G1 X177.587 Y84.212 E13.37605
G1 X177.6 Y84.83 E13.39661
G1 X177.6 Y143.764 E15.35676
G1 X177.599 Y143.911 E15.36165
G1 X177.589 Y144.633 E15.38567
G1 X177.536 Y145.552 E15.41629
G1 X177.404 Y146.463 E15.4469
G1 X177.193 Y147.359 E15.47752
G1 X176.905 Y148.234 E15.50816
G1 X176.543 Y149.08 E15.53876
G1 X176.108 Y149.892 E15.5694
G1 X175.605 Y150.662 E15.59999
G1 X175.036 Y151.387 E15.63064
G1 X174.407 Y152.059 E15.66126
G1 X173.722 Y152.674 E15.69188
G1 X172.986 Y153.227 E15.7225
G1 X172.205 Y153.714 E15.75311
G1 X171.385 Y154.132 E15.78372
G1 X170.531 Y154.477 E15.81436
G1 X169.651 Y154.747 E15.84497
G1 X168.75 Y154.939 E15.87561
G1 X167.453 Y155.076 E15.91899
G1 X167.133 Y155.09 E15.92964
G1 X166.67 Y155.1 E15.94505
G1 X165.555 Y155.099 E15.98213
G1 X164.857 Y155.089 E16.00535
G1 X163.938 Y155.036 E16.03597
G1 X163.027 Y154.903 E16.06659
G1 X162.131 Y154.692 E16.0972
G1 X161.257 Y154.404 E16.12781
G1 X160.113 Y153.892 E16.1695
G1 X157.763 Y152.668 E16.25763
G1 X155.459 Y151.546 E16.34286
G1 X153.19 Y150.52 E16.42568
G1 X150.811 Y149.523 E16.51148
G1 X148.499 Y148.633 E16.59388
G1 X146.12 Y147.793 E16.67779
G1 X143.673 Y147.005 E16.76329
G1 X141.259 Y146.302 E16.84692
G1 X138.825 Y145.667 E16.93058
G1 X136.333 Y145.091 E17.01565
G1 X133.891 Y144.601 E17.09849
G1 X131.394 Y144.173 E17.18275
G1 X128.898 Y143.817 E17.26661
G1 X126.339 Y143.525 E17.35228
G1 X123.872 Y143.314 E17.43463
G1 X121.334 Y143.169 E17.51918
G1 X118.787 Y143.096 E17.60393
G1 X116.277 Y143.094 E17.68741
G1 X113.732 Y143.165 E17.77209
G1 X111.212 Y143.307 E17.85604
G1 X108.724 Y143.517 E17.93909
G1 X106.195 Y143.803 E18.02374
G1 X103.685 Y144.16 E18.10806
G1 X101.175 Y144.589 E18.19275
G1 X98.733 Y145.077 E18.27558
G1 X96.255 Y145.647 E18.36015
G1 X93.799 Y146.284 E18.44454
G1 X91.374 Y146.988 E18.52853
G1 X88.965 Y147.762 E18.61269
G1 X86.591 Y148.599 E18.69641
G1 X84.224 Y149.509 E18.78075
G1 X81.883 Y150.487 E18.86514
G1 X79.581 Y151.525 E18.94913
G1 X77.289 Y152.638 E19.03387
G1 X75.49 Y153.569 E19.10124
G1 X74.999 Y153.83 E19.11974
G1 X74.168 Y154.226 E19.15035
G1 X73.306 Y154.549 E19.18097
G1 X72.419 Y154.795 E19.21159
G1 X71.514 Y154.964 E19.24221
G1 X70.586 Y155.054 E19.27322
G1 X70.227 Y155.073 E19.28517
G1 X69.742 Y155.088 E19.30131
G1 X68.609 Y155.095 E19.339
G1 X67.946 Y155.091 E19.36105
G1 X67.027 Y155.045 E19.39165
G1 X66.114 Y154.92 E19.4223
G1 X65.217 Y154.716 E19.4529
G1 X64.34 Y154.435 E19.48353
G1 X63.491 Y154.079 E19.51415
G1 X62.676 Y153.651 E19.54477
G1 X61.901 Y153.154 E19.57539
G1 X61.173 Y152.591 E19.606
G1 X60.495 Y151.967 E19.63665
G1 X59.875 Y151.287 E19.66725
G1 X59.316 Y150.555 E19.69789
G1 X58.823 Y149.778 E19.72849
G1 X58.399 Y148.961 E19.75911
G1 X58.047 Y148.11 E19.78974
G1 X57.77 Y147.232 E19.82036
G1 X57.571 Y146.333 E19.85098
G1 X57.451 Y145.42 E19.88161
G1 X57.412 Y144.679 E19.90629
G1 X57.4 Y143.926 E19.93134
G1 X57.4 Y85.174 E21.88544
G1 X57.401 Y85.015 E21.89073
G1 X57.411 Y84.35 E21.91285
G1 X57.465 Y83.431 E21.94347
G1 X57.598 Y82.52 E21.97409
G1 X57.81 Y81.624 E22.00471
G1 X58.099 Y80.749 E22.03536
G1 X58.463 Y79.904 E22.06596
G1 X58.898 Y79.093 E22.09657
G1 X59.403 Y78.322 E22.12723
G1 X59.972 Y77.599 E22.15783
G1 X60.602 Y76.927 E22.18846
G1 X61.288 Y76.313 E22.21908
G1 X62.024 Y75.761 E22.24968
G1 X62.806 Y75.274 E22.28032
G1 X63.627 Y74.858 E22.31094
G1 X64.481 Y74.514 E22.34156
G1 X65.361 Y74.245 E22.37216
G1 X66.262 Y74.054 E22.4028
G1 X67.176 Y73.942 E22.43342
G1 X67.712 Y73.913 E22.45128
G1 X68.33 Y73.9 E22.47184
G1 X166.293 Y73.9 E25.7301
G1 X166.445 Y73.901 E25.73516
G1 X167.143 Y73.911 E25.75837
G0 F6000 X167.149 Y73.511
G1 F1200 X168.085 Y73.565 E25.78956
G1 X169.013 Y73.697 E25.82073
G1 X169.927 Y73.909 E25.85194
G1 X170.819 Y74.198 E25.88313
G1 X171.684 Y74.561 E25.91433
G1 X172.514 Y74.997 E25.94551
G1 X173.305 Y75.502 E25.97672
G1 X174.049 Y76.073 E26.00792
G1 X174.742 Y76.705 E26.03911
G1 X175.379 Y77.393 E26.0703
G1 X175.954 Y78.134 E26.10149
G1 X176.465 Y78.92 E26.13267
G1 X176.907 Y79.748 E26.16389
G1 X177.276 Y80.61 E26.19508
G1 X177.571 Y81.5 E26.22626
G1 X177.789 Y82.412 E26.25745
G1 X177.929 Y83.34 E26.28867
G1 X177.987 Y84.201 E26.31737
G1 X178 Y84.83 E26.33829
G1 X178 Y143.764 E28.29845
G1 X177.999 Y143.916 E28.3035
G1 X177.989 Y144.638 E28.32752
G1 X177.936 Y145.575 E28.35873
G1 X177.803 Y146.503 E28.38991
G1 X177.592 Y147.417 E28.42111
G1 X177.304 Y148.309 E28.45229
G1 X176.941 Y149.174 E28.48349
G1 X176.505 Y150.005 E28.5147
G1 X176.001 Y150.795 E28.54587
G1 X175.431 Y151.54 E28.57707
G1 X174.799 Y152.233 E28.60826
G1 X174.111 Y152.87 E28.63945
G1 X173.371 Y153.446 E28.67064
G1 X172.584 Y153.957 E28.70185
G1 X171.757 Y154.399 E28.73304
G1 X170.895 Y154.769 E28.76423
G1 X170.005 Y155.065 E28.79543
G1 X169.093 Y155.283 E28.82662
G1 X168.166 Y155.423 E28.8578
G1 X167.471 Y155.475 E28.88098
G1 X167.151 Y155.489 E28.89163
G1 X166.67 Y155.5 E28.90764
G1 X165.549 Y155.499 E28.94492
G1 X164.851 Y155.489 E28.96814
G1 X163.915 Y155.435 E28.99932
G1 X162.987 Y155.303 E29.0305
G1 X162.073 Y155.091 E29.0617
G1 X161.181 Y154.802 E29.09289
G1 X159.928 Y154.246 E29.13848
G1 X157.582 Y153.024 E29.22646
G1 X155.327 Y151.926 E29.30988
G1 X153.019 Y150.882 E29.39414
G1 X150.649 Y149.889 E29.4796
G1 X148.359 Y149.007 E29.56122
G1 X145.969 Y148.164 E29.64551
G1 X143.587 Y147.396 E29.72876
G1 X141.151 Y146.687 E29.81314
G1 X138.74 Y146.058 E29.89601
G1 X136.237 Y145.479 E29.98146
G1 X133.816 Y144.994 E30.06358
G1 X131.336 Y144.568 E30.14728
G1 X128.833 Y144.212 E30.23137
G1 X126.331 Y143.926 E30.31512
G1 X123.816 Y143.711 E30.39908
G1 X121.299 Y143.567 E30.48293
G1 X118.811 Y143.496 E30.56572
G1 X116.288 Y143.494 E30.64963
G1 X113.767 Y143.565 E30.73351
G1 X111.232 Y143.707 E30.81796
G1 X108.732 Y143.918 E30.90141
G1 X106.26 Y144.198 E30.98415
G1 X103.737 Y144.557 E31.06891
G1 X101.249 Y144.982 E31.15286
G1 X98.795 Y145.472 E31.23609
G1 X96.381 Y146.027 E31.31848
G1 X93.897 Y146.672 E31.40384
G1 X91.502 Y147.367 E31.48678
G1 X89.083 Y148.144 E31.57129
G1 X86.731 Y148.973 E31.65423
G1 X84.374 Y149.88 E31.73823
G1 X82.036 Y150.856 E31.82249
G1 X79.771 Y151.878 E31.90514
G1 X77.453 Y153.003 E31.99084
G1 X75.683 Y153.92 E32.05714
G1 X75.187 Y154.183 E32.07581
G1 X74.34 Y154.588 E32.10704
G1 X73.463 Y154.918 E32.13821
G1 X72.56 Y155.173 E32.16941
G1 X71.639 Y155.35 E32.20061
G1 X70.607 Y155.454 E32.23511
G1 X70.248 Y155.473 E32.24706
G1 X69.744 Y155.488 E32.26383
G1 X68.607 Y155.495 E32.30165
G1 X67.944 Y155.491 E32.3237
G1 X67.007 Y155.445 E32.35491
G1 X66.077 Y155.32 E32.38612
G1 X65.162 Y155.116 E32.4173
G1 X64.267 Y154.835 E32.4485
G1 X63.4 Y154.478 E32.47968
G1 X62.566 Y154.049 E32.51088
G1 X61.771 Y153.551 E32.54208
G1 X61.022 Y152.986 E32.57328
G1 X60.324 Y152.36 E32.60447
G1 X59.682 Y151.677 E32.63564
G1 X59.1 Y150.941 E32.66685
G1 X58.583 Y150.159 E32.69803
G1 X58.134 Y149.335 E32.72924
G1 X57.757 Y148.476 E32.76044
G1 X57.455 Y147.589 E32.79161
G1 X57.23 Y146.678 E32.82282
G1 X57.083 Y145.752 E32.854
G1 X57.012 Y144.686 E32.88954
G1 X57 Y143.926 E32.91482
G1 X57 Y85.174 E34.86892
G1 X57.001 Y85.009 E34.8744
G1 X57.011 Y84.344 E34.89652
G1 X57.065 Y83.407 E34.92774
G1 X57.199 Y82.479 E34.95893
G1 X57.411 Y81.565 E34.99013
G1 X57.7 Y80.673 E35.02132
G1 X58.065 Y79.809 E35.05252
G1 X58.501 Y78.979 E35.0837
G1 X59.007 Y78.189 E35.1149
G1 X59.578 Y77.445 E35.1461
G1 X60.21 Y76.752 E35.17729
G1 X60.899 Y76.116 E35.20848
G1 X61.64 Y75.541 E35.23967
G1 X62.427 Y75.031 E35.27086
G1 X63.255 Y74.59 E35.30207
G1 X64.117 Y74.221 E35.33325
G1 X65.008 Y73.927 E35.36446
G1 X65.92 Y73.709 E35.39565
G1 X66.847 Y73.571 E35.42682
G1 X67.701 Y73.513 E35.45529
G1 X68.33 Y73.5 E35.47621
G1 X166.293 Y73.5 E38.73448
G1 X166.451 Y73.501 E38.73973
G1 X167.149 Y73.511 E38.76295
G1 F2700 E33.76295
;MESH:parf-dust-port.stl
G0 F6000 X95.442 Y92.469
G0 X96.413 Y93.587
G0 X94.785 Y94.424
G0 X93.228 Y95.077
;TYPE:WALL-INNER
G1 F2700 E38.76295
G1 F1200 X93.541 Y95.032 E38.77347
G1 X93.854 Y94.966 E38.78411
G1 X94.16 Y94.878 E38.7947
G1 X94.464 Y94.771 E38.80542
G1 X94.757 Y94.639 E38.8161
G1 X95.041 Y94.49 E38.82677
G1 X95.316 Y94.319 E38.83754
G1 X95.575 Y94.131 E38.84819
G1 X95.821 Y93.926 E38.85884
G1 X96.053 Y93.702 E38.86956
G1 X96.267 Y93.464 E38.88021
G1 X96.466 Y93.211 E38.89091
G1 X96.645 Y92.947 E38.90152
G1 X96.808 Y92.668 E38.91227
G1 X96.948 Y92.379 E38.92295
G1 X97.07 Y92.081 E38.93366
G1 X97.169 Y91.776 E38.94433
G1 X97.247 Y91.465 E38.95499
G1 X97.303 Y91.148 E38.9657
G1 X97.337 Y90.829 E38.97637
G1 X97.349 Y90.51 E38.98698
G1 X97.339 Y90.18 E38.99797
G1 X97.305 Y89.86 E39.00867
G1 X97.251 Y89.543 E39.01936
G1 X97.172 Y89.231 E39.03007
G1 X97.073 Y88.926 E39.04073
G1 X96.953 Y88.629 E39.05139
G1 X96.813 Y88.34 E39.06207
G1 X96.651 Y88.062 E39.07277
G1 X96.472 Y87.795 E39.08346
G1 X96.274 Y87.543 E39.09412
G1 X96.059 Y87.305 E39.10479
G1 X95.829 Y87.081 E39.11547
G1 X95.582 Y86.874 E39.12619
G1 X95.322 Y86.686 E39.13686
G1 X95.05 Y86.516 E39.14753
G1 X94.767 Y86.366 E39.15818
G1 X94.473 Y86.234 E39.1689
G1 X94.171 Y86.125 E39.17958
G1 X93.863 Y86.037 E39.19023
G1 X93.55 Y85.97 E39.20088
G1 X93.231 Y85.925 E39.21159
G1 X92.918 Y85.903 E39.22203
G1 X92.59 Y85.902 E39.23294
G1 X92.272 Y85.924 E39.24354
G1 X91.961 Y85.968 E39.25399
G1 X91.647 Y86.034 E39.26466
G1 X91.34 Y86.122 E39.27528
G1 X91.036 Y86.229 E39.286
G1 X90.743 Y86.361 E39.29669
G1 X90.459 Y86.51 E39.30735
G1 X90.184 Y86.681 E39.31812
G1 X89.925 Y86.869 E39.32877
G1 X89.679 Y87.074 E39.33942
G1 X89.447 Y87.298 E39.35015
G1 X89.233 Y87.536 E39.36079
G1 X89.034 Y87.789 E39.3715
G1 X88.855 Y88.053 E39.38211
G1 X88.692 Y88.332 E39.39285
G1 X88.552 Y88.621 E39.40353
G1 X88.43 Y88.919 E39.41424
G1 X88.331 Y89.224 E39.42491
G1 X88.253 Y89.535 E39.43557
G1 X88.197 Y89.852 E39.44628
G1 X88.163 Y90.171 E39.45695
G1 X88.151 Y90.49 E39.46757
G1 X88.161 Y90.82 E39.47855
G1 X88.195 Y91.14 E39.48925
G1 X88.249 Y91.457 E39.49995
G1 X88.328 Y91.769 E39.51065
G1 X88.427 Y92.074 E39.52132
G1 X88.547 Y92.371 E39.53197
G1 X88.687 Y92.66 E39.54265
G1 X88.849 Y92.938 E39.55335
G1 X89.028 Y93.205 E39.56405
G1 X89.226 Y93.457 E39.5747
G1 X89.441 Y93.695 E39.58537
G1 X89.671 Y93.919 E39.59605
G1 X89.918 Y94.126 E39.60677
G1 X90.178 Y94.314 E39.61744
G1 X90.45 Y94.484 E39.62811
G1 X90.733 Y94.634 E39.63876
G1 X91.027 Y94.766 E39.64948
G1 X91.329 Y94.875 E39.66016
G1 X91.637 Y94.963 E39.67081
G1 X91.95 Y95.03 E39.68146
G1 X92.267 Y95.075 E39.69211
G1 X92.582 Y95.099 E39.70262
G1 X92.911 Y95.098 E39.71356
G1 X93.228 Y95.077 E39.72413
G0 F6000 X93.186 Y94.679
;TYPE:WALL-OUTER
G1 F1200 X93.471 Y94.638 E39.7337
G1 X93.757 Y94.578 E39.74342
G1 X94.038 Y94.497 E39.75315
G1 X94.315 Y94.399 E39.76292
G1 X94.582 Y94.279 E39.77266
G1 X94.842 Y94.143 E39.78242
G1 X95.092 Y93.987 E39.79222
